%
O00464
(T1  D=0.25 CR=0. - ZMIN=-0.29 - flat end mill)
(T3  D=0.1875 CR=0. - ZMIN=-0.29 - flat end mill)
N10 G90 G94 G17
N15 G20
N20 G28 G91 Z0.
N25 G90
(Circular1)
N30 T1 M6
N35 T3
N40 S1400 M3
N45 G54
N55 G0 X-2.0328 Y0.025
N60 G43 Z0.64 H1
N65 Z0.0438
N70 G1 Z-0.0113 F30.
N75 G18 G2 X-2.0077 Z-0.0363 I0.025 K0.
N80 G1 X-1.9953
N85 G17 G2 X-1.9702 Y0. I0. J-0.025
N90 X-2.8358 I-0.4328 J0.
N95 X-1.9702 I0.4328 J0.
N100 X-1.9953 Y-0.025 I-0.025 J0.
N105 G1 X-2.0077
N110 G18 G3 X-2.0328 Z-0.0113 I0. K0.025
N115 G0 Z0.24
N120 Y0.025
N125 Z0.0075
N130 G1 Z-0.0475 F30.
N135 G2 X-2.0077 Z-0.0725 I0.025 K0.
N140 G1 X-1.9953
N145 G17 G2 X-1.9702 Y0. I0. J-0.025
N150 X-2.8358 I-0.4328 J0.
N155 X-1.9702 I0.4328 J0.
N160 X-1.9953 Y-0.025 I-0.025 J0.
N165 G1 X-2.0077
N170 G18 G3 X-2.0328 Z-0.0475 I0. K0.025
N175 G0 Z0.24
N180 Y0.025
N185 Z-0.0288
N190 G1 Z-0.0837 F30.
N195 G2 X-2.0077 Z-0.1087 I0.025 K0.
N200 G1 X-1.9953
N205 G17 G2 X-1.9702 Y0. I0. J-0.025
N210 X-2.8358 I-0.4328 J0.
N215 X-1.9702 I0.4328 J0.
N220 X-1.9953 Y-0.025 I-0.025 J0.
N225 G1 X-2.0077
N230 G18 G3 X-2.0328 Z-0.0837 I0. K0.025
N235 G0 Z0.24
N240 Y0.025
N245 Z-0.065
N250 G1 Z-0.12 F30.
N255 G2 X-2.0077 Z-0.145 I0.025 K0.
N260 G1 X-1.9953
N265 G17 G2 X-1.9702 Y0. I0. J-0.025
N270 X-2.8358 I-0.4328 J0.
N275 X-1.9702 I0.4328 J0.
N280 X-1.9953 Y-0.025 I-0.025 J0.
N285 G1 X-2.0077
N290 G18 G3 X-2.0328 Z-0.12 I0. K0.025
N295 G0 Z0.24
N300 Y0.025
N305 Z-0.1012
N310 G1 Z-0.1563 F30.
N315 G2 X-2.0077 Z-0.1813 I0.025 K0.
N320 G1 X-1.9953
N325 G17 G2 X-1.9702 Y0. I0. J-0.025
N330 X-2.8358 I-0.4328 J0.
N335 X-1.9702 I0.4328 J0.
N340 X-1.9953 Y-0.025 I-0.025 J0.
N345 G1 X-2.0077
N350 G18 G3 X-2.0328 Z-0.1563 I0. K0.025
N355 G0 Z0.24
N360 Y0.025
N365 Z-0.1375
N370 G1 Z-0.1925 F30.
N375 G2 X-2.0077 Z-0.2175 I0.025 K0.
N380 G1 X-1.9953
N385 G17 G2 X-1.9702 Y0. I0. J-0.025
N390 X-2.8358 I-0.4328 J0.
N395 X-1.9702 I0.4328 J0.
N400 X-1.9953 Y-0.025 I-0.025 J0.
N405 G1 X-2.0077
N410 G18 G3 X-2.0328 Z-0.1925 I0. K0.025
N415 G0 Z0.24
N420 Y0.025
N425 Z-0.1737
N430 G1 Z-0.2287 F30.
N435 G2 X-2.0077 Z-0.2538 I0.025 K0.
N440 G1 X-1.9953
N445 G17 G2 X-1.9702 Y0. I0. J-0.025
N450 X-2.8358 I-0.4328 J0.
N455 X-1.9702 I0.4328 J0.
N460 X-1.9953 Y-0.025 I-0.025 J0.
N465 G1 X-2.0077
N470 G18 G3 X-2.0328 Z-0.2287 I0. K0.025
N475 G0 Z0.24
N480 Y0.025
N485 Z-0.21
N490 G1 Z-0.265 F30.
N495 G2 X-2.0077 Z-0.29 I0.025 K0.
N500 G1 X-1.9953
N505 G17 G2 X-1.9702 Y0. I0. J-0.025
N510 X-2.8358 I-0.4328 J0.
N515 X-1.9702 I0.4328 J0.
N520 X-1.9953 Y-0.025 I-0.025 J0.
N525 G1 X-2.0077
N530 G18 G3 X-2.0328 Z-0.265 I0. K0.025
N535 G0 Z0.24
N540 X-0.1457 Y-1.0774
N545 Z0.0438
N550 G1 Z-0.0113 F30.
N555 X-0.146 Y-1.0772 Z-0.0152
N560 X-0.1468 Y-1.0768 Z-0.019
N565 X-0.1481 Y-1.0761 Z-0.0226
N570 X-0.1499 Y-1.0751 Z-0.0259
N575 X-0.1522 Y-1.0739 Z-0.0289
N580 X-0.1548 Y-1.0724 Z-0.0315
N585 X-0.1577 Y-1.0709 Z-0.0335
N590 X-0.1609 Y-1.0691 Z-0.035
N595 X-0.1643 Y-1.0673 Z-0.0359
N600 X-0.1677 Y-1.0654 Z-0.0363
N605 X-0.1787 Y-1.0595
N610 G17 G2 X-0.1888 Y-1.0256 I0.0119 J0.022
N615 X0.1888 Y-1.2304 I0.1888 J-0.1024
N620 X-0.1888 Y-1.0256 I-0.1888 J0.1024
N625 X-0.1549 Y-1.0155 I0.022 J-0.0119
N630 G1 X-0.1439 Y-1.0215
N635 X-0.1404 Y-1.0234 Z-0.0359
N640 X-0.1371 Y-1.0252 Z-0.035
N645 X-0.1339 Y-1.0269 Z-0.0335
N650 X-0.131 Y-1.0285 Z-0.0315
N655 X-0.1283 Y-1.0299 Z-0.0289
N660 X-0.1261 Y-1.0311 Z-0.0259
N665 X-0.1243 Y-1.0321 Z-0.0226
N670 X-0.123 Y-1.0328 Z-0.019
N675 X-0.1222 Y-1.0333 Z-0.0152
N680 X-0.1219 Y-1.0334 Z-0.0113
N685 G0 Z0.24
N690 X-0.1457 Y-1.0774
N695 Z0.0075
N700 G1 Z-0.0475 F30.
N705 X-0.146 Y-1.0772 Z-0.0514
N710 X-0.1468 Y-1.0768 Z-0.0552
N715 X-0.1481 Y-1.0761 Z-0.0588
N720 X-0.1499 Y-1.0751 Z-0.0622
N725 X-0.1522 Y-1.0739 Z-0.0652
N730 X-0.1548 Y-1.0724 Z-0.0677
N735 X-0.1577 Y-1.0709 Z-0.0698
N740 X-0.1609 Y-1.0691 Z-0.0713
N745 X-0.1643 Y-1.0673 Z-0.0722
N750 X-0.1677 Y-1.0654 Z-0.0725
N755 X-0.1787 Y-1.0595
N760 G2 X-0.1888 Y-1.0256 I0.0119 J0.022
N765 X0.1888 Y-1.2304 I0.1888 J-0.1024
N770 X-0.1888 Y-1.0256 I-0.1888 J0.1024
N775 X-0.1549 Y-1.0155 I0.022 J-0.0119
N780 G1 X-0.1439 Y-1.0215
N785 X-0.1404 Y-1.0234 Z-0.0722
N790 X-0.1371 Y-1.0252 Z-0.0713
N795 X-0.1339 Y-1.0269 Z-0.0698
N800 X-0.131 Y-1.0285 Z-0.0677
N805 X-0.1283 Y-1.0299 Z-0.0652
N810 X-0.1261 Y-1.0311 Z-0.0622
N815 X-0.1243 Y-1.0321 Z-0.0588
N820 X-0.123 Y-1.0328 Z-0.0552
N825 X-0.1222 Y-1.0333 Z-0.0514
N830 X-0.1219 Y-1.0334 Z-0.0475
N835 G0 Z0.24
N840 X-0.1457 Y-1.0774
N845 Z-0.0288
N850 G1 Z-0.0837 F30.
N855 X-0.146 Y-1.0772 Z-0.0877
N860 X-0.1468 Y-1.0768 Z-0.0915
N865 X-0.1481 Y-1.0761 Z-0.0951
N870 X-0.1499 Y-1.0751 Z-0.0984
N875 X-0.1522 Y-1.0739 Z-0.1014
N880 X-0.1548 Y-1.0724 Z-0.104
N885 X-0.1577 Y-1.0709 Z-0.106
N890 X-0.1609 Y-1.0691 Z-0.1075
N895 X-0.1643 Y-1.0673 Z-0.1084
N900 X-0.1677 Y-1.0654 Z-0.1087
N905 X-0.1787 Y-1.0595
N910 G2 X-0.1888 Y-1.0256 I0.0119 J0.022
N915 X0.1888 Y-1.2304 I0.1888 J-0.1024
N920 X-0.1888 Y-1.0256 I-0.1888 J0.1024
N925 X-0.1549 Y-1.0155 I0.022 J-0.0119
N930 G1 X-0.1439 Y-1.0215
N935 X-0.1404 Y-1.0234 Z-0.1084
N940 X-0.1371 Y-1.0252 Z-0.1075
N945 X-0.1339 Y-1.0269 Z-0.106
N950 X-0.131 Y-1.0285 Z-0.104
N955 X-0.1283 Y-1.0299 Z-0.1014
N960 X-0.1261 Y-1.0311 Z-0.0984
N965 X-0.1243 Y-1.0321 Z-0.0951
N970 X-0.123 Y-1.0328 Z-0.0915
N975 X-0.1222 Y-1.0333 Z-0.0877
N980 X-0.1219 Y-1.0334 Z-0.0837
N985 G0 Z0.24
N990 X-0.1457 Y-1.0774
N995 Z-0.065
N1000 G1 Z-0.12 F30.
N1005 X-0.146 Y-1.0772 Z-0.1239
N1010 X-0.1468 Y-1.0768 Z-0.1277
N1015 X-0.1481 Y-1.0761 Z-0.1313
N1020 X-0.1499 Y-1.0751 Z-0.1347
N1025 X-0.1522 Y-1.0739 Z-0.1377
N1030 X-0.1548 Y-1.0724 Z-0.1402
N1035 X-0.1577 Y-1.0709 Z-0.1423
N1040 X-0.1609 Y-1.0691 Z-0.1438
N1045 X-0.1643 Y-1.0673 Z-0.1447
N1050 X-0.1677 Y-1.0654 Z-0.145
N1055 X-0.1787 Y-1.0595
N1060 G2 X-0.1888 Y-1.0256 I0.0119 J0.022
N1065 X0.1888 Y-1.2304 I0.1888 J-0.1024
N1070 X-0.1888 Y-1.0256 I-0.1888 J0.1024
N1075 X-0.1549 Y-1.0155 I0.022 J-0.0119
N1080 G1 X-0.1439 Y-1.0215
N1085 X-0.1404 Y-1.0234 Z-0.1447
N1090 X-0.1371 Y-1.0252 Z-0.1438
N1095 X-0.1339 Y-1.0269 Z-0.1423
N1100 X-0.131 Y-1.0285 Z-0.1402
N1105 X-0.1283 Y-1.0299 Z-0.1377
N1110 X-0.1261 Y-1.0311 Z-0.1347
N1115 X-0.1243 Y-1.0321 Z-0.1313
N1120 X-0.123 Y-1.0328 Z-0.1277
N1125 X-0.1222 Y-1.0333 Z-0.1239
N1130 X-0.1219 Y-1.0334 Z-0.12
N1135 G0 Z0.24
N1140 X-0.1457 Y-1.0774
N1145 Z-0.1012
N1150 G1 Z-0.1563 F30.
N1155 X-0.146 Y-1.0772 Z-0.1602
N1160 X-0.1468 Y-1.0768 Z-0.164
N1165 X-0.1481 Y-1.0761 Z-0.1676
N1170 X-0.1499 Y-1.0751 Z-0.1709
N1175 X-0.1522 Y-1.0739 Z-0.1739
N1180 X-0.1548 Y-1.0724 Z-0.1765
N1185 X-0.1577 Y-1.0709 Z-0.1785
N1190 X-0.1609 Y-1.0691 Z-0.18
N1195 X-0.1643 Y-1.0673 Z-0.1809
N1200 X-0.1677 Y-1.0654 Z-0.1813
N1205 X-0.1787 Y-1.0595
N1210 G2 X-0.1888 Y-1.0256 I0.0119 J0.022
N1215 X0.1888 Y-1.2304 I0.1888 J-0.1024
N1220 X-0.1888 Y-1.0256 I-0.1888 J0.1024
N1225 X-0.1549 Y-1.0155 I0.022 J-0.0119
N1230 G1 X-0.1439 Y-1.0215
N1235 X-0.1404 Y-1.0234 Z-0.1809
N1240 X-0.1371 Y-1.0252 Z-0.18
N1245 X-0.1339 Y-1.0269 Z-0.1785
N1250 X-0.131 Y-1.0285 Z-0.1765
N1255 X-0.1283 Y-1.0299 Z-0.1739
N1260 X-0.1261 Y-1.0311 Z-0.1709
N1265 X-0.1243 Y-1.0321 Z-0.1676
N1270 X-0.123 Y-1.0328 Z-0.164
N1275 X-0.1222 Y-1.0333 Z-0.1602
N1280 X-0.1219 Y-1.0334 Z-0.1563
N1285 G0 Z0.24
N1290 X-0.1457 Y-1.0774
N1295 Z-0.1375
N1300 G1 Z-0.1925 F30.
N1305 X-0.146 Y-1.0772 Z-0.1964
N1310 X-0.1468 Y-1.0768 Z-0.2002
N1315 X-0.1481 Y-1.0761 Z-0.2038
N1320 X-0.1499 Y-1.0751 Z-0.2072
N1325 X-0.1522 Y-1.0739 Z-0.2102
N1330 X-0.1548 Y-1.0724 Z-0.2127
N1335 X-0.1577 Y-1.0709 Z-0.2148
N1340 X-0.1609 Y-1.0691 Z-0.2163
N1345 X-0.1643 Y-1.0673 Z-0.2172
N1350 X-0.1677 Y-1.0654 Z-0.2175
N1355 X-0.1787 Y-1.0595
N1360 G2 X-0.1888 Y-1.0256 I0.0119 J0.022
N1365 X0.1888 Y-1.2304 I0.1888 J-0.1024
N1370 X-0.1888 Y-1.0256 I-0.1888 J0.1024
N1375 X-0.1549 Y-1.0155 I0.022 J-0.0119
N1380 G1 X-0.1439 Y-1.0215
N1385 X-0.1404 Y-1.0234 Z-0.2172
N1390 X-0.1371 Y-1.0252 Z-0.2163
N1395 X-0.1339 Y-1.0269 Z-0.2148
N1400 X-0.131 Y-1.0285 Z-0.2127
N1405 X-0.1283 Y-1.0299 Z-0.2102
N1410 X-0.1261 Y-1.0311 Z-0.2072
N1415 X-0.1243 Y-1.0321 Z-0.2038
N1420 X-0.123 Y-1.0328 Z-0.2002
N1425 X-0.1222 Y-1.0333 Z-0.1964
N1430 X-0.1219 Y-1.0334 Z-0.1925
N1435 G0 Z0.24
N1440 X-0.1457 Y-1.0774
N1445 Z-0.1737
N1450 G1 Z-0.2287 F30.
N1455 X-0.146 Y-1.0772 Z-0.2327
N1460 X-0.1468 Y-1.0768 Z-0.2365
N1465 X-0.1481 Y-1.0761 Z-0.2401
N1470 X-0.1499 Y-1.0751 Z-0.2434
N1475 X-0.1522 Y-1.0739 Z-0.2464
N1480 X-0.1548 Y-1.0724 Z-0.249
N1485 X-0.1577 Y-1.0709 Z-0.251
N1490 X-0.1609 Y-1.0691 Z-0.2525
N1495 X-0.1643 Y-1.0673 Z-0.2534
N1500 X-0.1677 Y-1.0654 Z-0.2538
N1505 X-0.1787 Y-1.0595
N1510 G2 X-0.1888 Y-1.0256 I0.0119 J0.022
N1515 X0.1888 Y-1.2304 I0.1888 J-0.1024
N1520 X-0.1888 Y-1.0256 I-0.1888 J0.1024
N1525 X-0.1549 Y-1.0155 I0.022 J-0.0119
N1530 G1 X-0.1439 Y-1.0215
N1535 X-0.1404 Y-1.0234 Z-0.2534
N1540 X-0.1371 Y-1.0252 Z-0.2525
N1545 X-0.1339 Y-1.0269 Z-0.251
N1550 X-0.131 Y-1.0285 Z-0.249
N1555 X-0.1283 Y-1.0299 Z-0.2464
N1560 X-0.1261 Y-1.0311 Z-0.2434
N1565 X-0.1243 Y-1.0321 Z-0.2401
N1570 X-0.123 Y-1.0328 Z-0.2365
N1575 X-0.1222 Y-1.0333 Z-0.2327
N1580 X-0.1219 Y-1.0334 Z-0.2287
N1585 G0 Z0.24
N1590 X-0.1457 Y-1.0774
N1595 Z-0.21
N1600 G1 Z-0.265 F30.
N1605 X-0.146 Y-1.0772 Z-0.2689
N1610 X-0.1468 Y-1.0768 Z-0.2727
N1615 X-0.1481 Y-1.0761 Z-0.2763
N1620 X-0.1499 Y-1.0751 Z-0.2797
N1625 X-0.1522 Y-1.0739 Z-0.2827
N1630 X-0.1548 Y-1.0724 Z-0.2852
N1635 X-0.1577 Y-1.0709 Z-0.2873
N1640 X-0.1609 Y-1.0691 Z-0.2888
N1645 X-0.1643 Y-1.0673 Z-0.2897
N1650 X-0.1677 Y-1.0654 Z-0.29
N1655 X-0.1787 Y-1.0595
N1660 G2 X-0.1888 Y-1.0256 I0.0119 J0.022
N1665 X0.1888 Y-1.2304 I0.1888 J-0.1024
N1670 X-0.1888 Y-1.0256 I-0.1888 J0.1024
N1675 X-0.1549 Y-1.0155 I0.022 J-0.0119
N1680 G1 X-0.1439 Y-1.0215
N1685 X-0.1404 Y-1.0234 Z-0.2897
N1690 X-0.1371 Y-1.0252 Z-0.2888
N1695 X-0.1339 Y-1.0269 Z-0.2873
N1700 X-0.131 Y-1.0285 Z-0.2852
N1705 X-0.1283 Y-1.0299 Z-0.2827
N1710 X-0.1261 Y-1.0311 Z-0.2797
N1715 X-0.1243 Y-1.0321 Z-0.2763
N1720 X-0.123 Y-1.0328 Z-0.2727
N1725 X-0.1222 Y-1.0333 Z-0.2689
N1730 X-0.1219 Y-1.0334 Z-0.265
N1735 G0 Z0.24
N1740 X-0.0185 Y-0.3706
N1745 Z0.0438
N1750 G1 Z-0.0113 F30.
N1755 X-0.0186 Y-0.3709 Z-0.0152
N1760 X-0.0187 Y-0.3718 Z-0.019
N1765 X-0.0189 Y-0.3733 Z-0.0226
N1770 X-0.0191 Y-0.3754 Z-0.0259
N1775 X-0.0194 Y-0.3779 Z-0.0289
N1780 X-0.0198 Y-0.3809 Z-0.0315
N1785 X-0.0201 Y-0.3842 Z-0.0335
N1790 X-0.0206 Y-0.3878 Z-0.035
N1795 X-0.021 Y-0.3916 Z-0.0359
N1800 X-0.0215 Y-0.3955 Z-0.0363
N1805 X-0.0229 Y-0.4079
N1810 G2 X-0.0507 Y-0.4298 I-0.0248 J0.0029
N1815 X0.0507 Y0.4298 I0.0507 J0.4298
N1820 X-0.0507 Y-0.4298 I-0.0507 J-0.4298
N1825 X-0.0726 Y-0.402 I0.0029 J0.0248
N1830 G1 X-0.0711 Y-0.3896
N1835 X-0.0707 Y-0.3857 Z-0.0359
N1840 X-0.0702 Y-0.3819 Z-0.035
N1845 X-0.0698 Y-0.3783 Z-0.0335
N1850 X-0.0694 Y-0.375 Z-0.0315
N1855 X-0.0691 Y-0.372 Z-0.0289
N1860 X-0.0688 Y-0.3695 Z-0.0259
N1865 X-0.0685 Y-0.3675 Z-0.0226
N1870 X-0.0683 Y-0.366 Z-0.019
N1875 X-0.0682 Y-0.3651 Z-0.0152
N1880 Y-0.3648 Z-0.0113
N1885 G0 Z0.24
N1890 X-0.0185 Y-0.3706
N1895 Z0.0075
N1900 G1 Z-0.0475 F30.
N1905 X-0.0186 Y-0.3709 Z-0.0514
N1910 X-0.0187 Y-0.3718 Z-0.0552
N1915 X-0.0189 Y-0.3733 Z-0.0588
N1920 X-0.0191 Y-0.3754 Z-0.0622
N1925 X-0.0194 Y-0.3779 Z-0.0652
N1930 X-0.0198 Y-0.3809 Z-0.0677
N1935 X-0.0201 Y-0.3842 Z-0.0698
N1940 X-0.0206 Y-0.3878 Z-0.0713
N1945 X-0.021 Y-0.3916 Z-0.0722
N1950 X-0.0215 Y-0.3955 Z-0.0725
N1955 X-0.0229 Y-0.4079
N1960 G2 X-0.0507 Y-0.4298 I-0.0248 J0.0029
N1965 X0.0507 Y0.4298 I0.0507 J0.4298
N1970 X-0.0507 Y-0.4298 I-0.0507 J-0.4298
N1975 X-0.0726 Y-0.402 I0.0029 J0.0248
N1980 G1 X-0.0711 Y-0.3896
N1985 X-0.0707 Y-0.3857 Z-0.0722
N1990 X-0.0702 Y-0.3819 Z-0.0713
N1995 X-0.0698 Y-0.3783 Z-0.0698
N2000 X-0.0694 Y-0.375 Z-0.0677
N2005 X-0.0691 Y-0.372 Z-0.0652
N2010 X-0.0688 Y-0.3695 Z-0.0622
N2015 X-0.0685 Y-0.3675 Z-0.0588
N2020 X-0.0683 Y-0.366 Z-0.0552
N2025 X-0.0682 Y-0.3651 Z-0.0514
N2030 Y-0.3648 Z-0.0475
N2035 G0 Z0.24
N2040 X-0.0185 Y-0.3706
N2045 Z-0.0288
N2050 G1 Z-0.0837 F30.
N2055 X-0.0186 Y-0.3709 Z-0.0877
N2060 X-0.0187 Y-0.3718 Z-0.0915
N2065 X-0.0189 Y-0.3733 Z-0.0951
N2070 X-0.0191 Y-0.3754 Z-0.0984
N2075 X-0.0194 Y-0.3779 Z-0.1014
N2080 X-0.0198 Y-0.3809 Z-0.104
N2085 X-0.0201 Y-0.3842 Z-0.106
N2090 X-0.0206 Y-0.3878 Z-0.1075
N2095 X-0.021 Y-0.3916 Z-0.1084
N2100 X-0.0215 Y-0.3955 Z-0.1087
N2105 X-0.0229 Y-0.4079
N2110 G2 X-0.0507 Y-0.4298 I-0.0248 J0.0029
N2115 X0.0507 Y0.4298 I0.0507 J0.4298
N2120 X-0.0507 Y-0.4298 I-0.0507 J-0.4298
N2125 X-0.0726 Y-0.402 I0.0029 J0.0248
N2130 G1 X-0.0711 Y-0.3896
N2135 X-0.0707 Y-0.3857 Z-0.1084
N2140 X-0.0702 Y-0.3819 Z-0.1075
N2145 X-0.0698 Y-0.3783 Z-0.106
N2150 X-0.0694 Y-0.375 Z-0.104
N2155 X-0.0691 Y-0.372 Z-0.1014
N2160 X-0.0688 Y-0.3695 Z-0.0984
N2165 X-0.0685 Y-0.3675 Z-0.0951
N2170 X-0.0683 Y-0.366 Z-0.0915
N2175 X-0.0682 Y-0.3651 Z-0.0877
N2180 Y-0.3648 Z-0.0837
N2185 G0 Z0.24
N2190 X-0.0185 Y-0.3706
N2195 Z-0.065
N2200 G1 Z-0.12 F30.
N2205 X-0.0186 Y-0.3709 Z-0.1239
N2210 X-0.0187 Y-0.3718 Z-0.1277
N2215 X-0.0189 Y-0.3733 Z-0.1313
N2220 X-0.0191 Y-0.3754 Z-0.1347
N2225 X-0.0194 Y-0.3779 Z-0.1377
N2230 X-0.0198 Y-0.3809 Z-0.1402
N2235 X-0.0201 Y-0.3842 Z-0.1423
N2240 X-0.0206 Y-0.3878 Z-0.1438
N2245 X-0.021 Y-0.3916 Z-0.1447
N2250 X-0.0215 Y-0.3955 Z-0.145
N2255 X-0.0229 Y-0.4079
N2260 G2 X-0.0507 Y-0.4298 I-0.0248 J0.0029
N2265 X0.0507 Y0.4298 I0.0507 J0.4298
N2270 X-0.0507 Y-0.4298 I-0.0507 J-0.4298
N2275 X-0.0726 Y-0.402 I0.0029 J0.0248
N2280 G1 X-0.0711 Y-0.3896
N2285 X-0.0707 Y-0.3857 Z-0.1447
N2290 X-0.0702 Y-0.3819 Z-0.1438
N2295 X-0.0698 Y-0.3783 Z-0.1423
N2300 X-0.0694 Y-0.375 Z-0.1402
N2305 X-0.0691 Y-0.372 Z-0.1377
N2310 X-0.0688 Y-0.3695 Z-0.1347
N2315 X-0.0685 Y-0.3675 Z-0.1313
N2320 X-0.0683 Y-0.366 Z-0.1277
N2325 X-0.0682 Y-0.3651 Z-0.1239
N2330 Y-0.3648 Z-0.12
N2335 G0 Z0.24
N2340 X-0.0185 Y-0.3706
N2345 Z-0.1012
N2350 G1 Z-0.1563 F30.
N2355 X-0.0186 Y-0.3709 Z-0.1602
N2360 X-0.0187 Y-0.3718 Z-0.164
N2365 X-0.0189 Y-0.3733 Z-0.1676
N2370 X-0.0191 Y-0.3754 Z-0.1709
N2375 X-0.0194 Y-0.3779 Z-0.1739
N2380 X-0.0198 Y-0.3809 Z-0.1765
N2385 X-0.0201 Y-0.3842 Z-0.1785
N2390 X-0.0206 Y-0.3878 Z-0.18
N2395 X-0.021 Y-0.3916 Z-0.1809
N2400 X-0.0215 Y-0.3955 Z-0.1813
N2405 X-0.0229 Y-0.4079
N2410 G2 X-0.0507 Y-0.4298 I-0.0248 J0.0029
N2415 X0.0507 Y0.4298 I0.0507 J0.4298
N2420 X-0.0507 Y-0.4298 I-0.0507 J-0.4298
N2425 X-0.0726 Y-0.402 I0.0029 J0.0248
N2430 G1 X-0.0711 Y-0.3896
N2435 X-0.0707 Y-0.3857 Z-0.1809
N2440 X-0.0702 Y-0.3819 Z-0.18
N2445 X-0.0698 Y-0.3783 Z-0.1785
N2450 X-0.0694 Y-0.375 Z-0.1765
N2455 X-0.0691 Y-0.372 Z-0.1739
N2460 X-0.0688 Y-0.3695 Z-0.1709
N2465 X-0.0685 Y-0.3675 Z-0.1676
N2470 X-0.0683 Y-0.366 Z-0.164
N2475 X-0.0682 Y-0.3651 Z-0.1602
N2480 Y-0.3648 Z-0.1563
N2485 G0 Z0.24
N2490 X-0.0185 Y-0.3706
N2495 Z-0.1375
N2500 G1 Z-0.1925 F30.
N2505 X-0.0186 Y-0.3709 Z-0.1964
N2510 X-0.0187 Y-0.3718 Z-0.2002
N2515 X-0.0189 Y-0.3733 Z-0.2038
N2520 X-0.0191 Y-0.3754 Z-0.2072
N2525 X-0.0194 Y-0.3779 Z-0.2102
N2530 X-0.0198 Y-0.3809 Z-0.2127
N2535 X-0.0201 Y-0.3842 Z-0.2148
N2540 X-0.0206 Y-0.3878 Z-0.2163
N2545 X-0.021 Y-0.3916 Z-0.2172
N2550 X-0.0215 Y-0.3955 Z-0.2175
N2555 X-0.0229 Y-0.4079
N2560 G2 X-0.0507 Y-0.4298 I-0.0248 J0.0029
N2565 X0.0507 Y0.4298 I0.0507 J0.4298
N2570 X-0.0507 Y-0.4298 I-0.0507 J-0.4298
N2575 X-0.0726 Y-0.402 I0.0029 J0.0248
N2580 G1 X-0.0711 Y-0.3896
N2585 X-0.0707 Y-0.3857 Z-0.2172
N2590 X-0.0702 Y-0.3819 Z-0.2163
N2595 X-0.0698 Y-0.3783 Z-0.2148
N2600 X-0.0694 Y-0.375 Z-0.2127
N2605 X-0.0691 Y-0.372 Z-0.2102
N2610 X-0.0688 Y-0.3695 Z-0.2072
N2615 X-0.0685 Y-0.3675 Z-0.2038
N2620 X-0.0683 Y-0.366 Z-0.2002
N2625 X-0.0682 Y-0.3651 Z-0.1964
N2630 Y-0.3648 Z-0.1925
N2635 G0 Z0.24
N2640 X-0.0185 Y-0.3706
N2645 Z-0.1737
N2650 G1 Z-0.2287 F30.
N2655 X-0.0186 Y-0.3709 Z-0.2327
N2660 X-0.0187 Y-0.3718 Z-0.2365
N2665 X-0.0189 Y-0.3733 Z-0.2401
N2670 X-0.0191 Y-0.3754 Z-0.2434
N2675 X-0.0194 Y-0.3779 Z-0.2464
N2680 X-0.0198 Y-0.3809 Z-0.249
N2685 X-0.0201 Y-0.3842 Z-0.251
N2690 X-0.0206 Y-0.3878 Z-0.2525
N2695 X-0.021 Y-0.3916 Z-0.2534
N2700 X-0.0215 Y-0.3955 Z-0.2538
N2705 X-0.0229 Y-0.4079
N2710 G2 X-0.0507 Y-0.4298 I-0.0248 J0.0029
N2715 X0.0507 Y0.4298 I0.0507 J0.4298
N2720 X-0.0507 Y-0.4298 I-0.0507 J-0.4298
N2725 X-0.0726 Y-0.402 I0.0029 J0.0248
N2730 G1 X-0.0711 Y-0.3896
N2735 X-0.0707 Y-0.3857 Z-0.2534
N2740 X-0.0702 Y-0.3819 Z-0.2525
N2745 X-0.0698 Y-0.3783 Z-0.251
N2750 X-0.0694 Y-0.375 Z-0.249
N2755 X-0.0691 Y-0.372 Z-0.2464
N2760 X-0.0688 Y-0.3695 Z-0.2434
N2765 X-0.0685 Y-0.3675 Z-0.2401
N2770 X-0.0683 Y-0.366 Z-0.2365
N2775 X-0.0682 Y-0.3651 Z-0.2327
N2780 Y-0.3648 Z-0.2287
N2785 G0 Z0.24
N2790 X-0.0185 Y-0.3706
N2795 Z-0.21
N2800 G1 Z-0.265 F30.
N2805 X-0.0186 Y-0.3709 Z-0.2689
N2810 X-0.0187 Y-0.3718 Z-0.2727
N2815 X-0.0189 Y-0.3733 Z-0.2763
N2820 X-0.0191 Y-0.3754 Z-0.2797
N2825 X-0.0194 Y-0.3779 Z-0.2827
N2830 X-0.0198 Y-0.3809 Z-0.2852
N2835 X-0.0201 Y-0.3842 Z-0.2873
N2840 X-0.0206 Y-0.3878 Z-0.2888
N2845 X-0.021 Y-0.3916 Z-0.2897
N2850 X-0.0215 Y-0.3955 Z-0.29
N2855 X-0.0229 Y-0.4079
N2860 G2 X-0.0507 Y-0.4298 I-0.0248 J0.0029
N2865 X0.0507 Y0.4298 I0.0507 J0.4298
N2870 X-0.0507 Y-0.4298 I-0.0507 J-0.4298
N2875 X-0.0726 Y-0.402 I0.0029 J0.0248
N2880 G1 X-0.0711 Y-0.3896
N2885 X-0.0707 Y-0.3857 Z-0.2897
N2890 X-0.0702 Y-0.3819 Z-0.2888
N2895 X-0.0698 Y-0.3783 Z-0.2873
N2900 X-0.0694 Y-0.375 Z-0.2852
N2905 X-0.0691 Y-0.372 Z-0.2827
N2910 X-0.0688 Y-0.3695 Z-0.2797
N2915 X-0.0685 Y-0.3675 Z-0.2763
N2920 X-0.0683 Y-0.366 Z-0.2727
N2925 X-0.0682 Y-0.3651 Z-0.2689
N2930 Y-0.3648 Z-0.265
N2935 G0 Z0.24
N2940 X0.018 Y0.9748
N2945 Z0.0438
N2950 G1 Z-0.0113 F30.
N2955 Y0.9745 Z-0.0152
N2960 Y0.9735 Z-0.019
N2965 X0.0179 Y0.972 Z-0.0226
N2970 X0.0178 Y0.97 Z-0.0259
N2975 X0.0177 Y0.9675 Z-0.0289
N2980 X0.0176 Y0.9645 Z-0.0315
N2985 X0.0174 Y0.9611 Z-0.0335
N2990 X0.0172 Y0.9575 Z-0.035
N2995 X0.0171 Y0.9537 Z-0.0359
N3000 X0.0169 Y0.9498 Z-0.0363
N3005 X0.0163 Y0.9373
N3010 G2 X-0.0098 Y0.9135 I-0.025 J0.0011
N3015 X0.0098 Y1.3425 I0.0098 J0.2145
N3020 X-0.0098 Y0.9135 I-0.0098 J-0.2145
N3025 X-0.0336 Y0.9396 I0.0011 J0.025
N3030 G1 X-0.0331 Y0.9521
N3035 X-0.0329 Y0.956 Z-0.0359
N3040 X-0.0327 Y0.9598 Z-0.035
N3045 X-0.0325 Y0.9634 Z-0.0335
N3050 X-0.0324 Y0.9668 Z-0.0315
N3055 X-0.0323 Y0.9697 Z-0.0289
N3060 X-0.0321 Y0.9723 Z-0.0259
N3065 X-0.032 Y0.9743 Z-0.0226
N3070 Y0.9758 Z-0.019
N3075 X-0.0319 Y0.9767 Z-0.0152
N3080 Y0.977 Z-0.0113
N3085 G0 Z0.24
N3090 X0.018 Y0.9748
N3095 Z0.0075
N3100 G1 Z-0.0475 F30.
N3105 Y0.9745 Z-0.0514
N3110 Y0.9735 Z-0.0552
N3115 X0.0179 Y0.972 Z-0.0588
N3120 X0.0178 Y0.97 Z-0.0622
N3125 X0.0177 Y0.9675 Z-0.0652
N3130 X0.0176 Y0.9645 Z-0.0677
N3135 X0.0174 Y0.9611 Z-0.0698
N3140 X0.0172 Y0.9575 Z-0.0713
N3145 X0.0171 Y0.9537 Z-0.0722
N3150 X0.0169 Y0.9498 Z-0.0725
N3155 X0.0163 Y0.9373
N3160 G2 X-0.0098 Y0.9135 I-0.025 J0.0011
N3165 X0.0098 Y1.3425 I0.0098 J0.2145
N3170 X-0.0098 Y0.9135 I-0.0098 J-0.2145
N3175 X-0.0336 Y0.9396 I0.0011 J0.025
N3180 G1 X-0.0331 Y0.9521
N3185 X-0.0329 Y0.956 Z-0.0722
N3190 X-0.0327 Y0.9598 Z-0.0713
N3195 X-0.0325 Y0.9634 Z-0.0698
N3200 X-0.0324 Y0.9668 Z-0.0677
N3205 X-0.0323 Y0.9697 Z-0.0652
N3210 X-0.0321 Y0.9723 Z-0.0622
N3215 X-0.032 Y0.9743 Z-0.0588
N3220 Y0.9758 Z-0.0552
N3225 X-0.0319 Y0.9767 Z-0.0514
N3230 Y0.977 Z-0.0475
N3235 G0 Z0.24
N3240 X0.018 Y0.9748
N3245 Z-0.0288
N3250 G1 Z-0.0837 F30.
N3255 Y0.9745 Z-0.0877
N3260 Y0.9735 Z-0.0915
N3265 X0.0179 Y0.972 Z-0.0951
N3270 X0.0178 Y0.97 Z-0.0984
N3275 X0.0177 Y0.9675 Z-0.1014
N3280 X0.0176 Y0.9645 Z-0.104
N3285 X0.0174 Y0.9611 Z-0.106
N3290 X0.0172 Y0.9575 Z-0.1075
N3295 X0.0171 Y0.9537 Z-0.1084
N3300 X0.0169 Y0.9498 Z-0.1087
N3305 X0.0163 Y0.9373
N3310 G2 X-0.0098 Y0.9135 I-0.025 J0.0011
N3315 X0.0098 Y1.3425 I0.0098 J0.2145
N3320 X-0.0098 Y0.9135 I-0.0098 J-0.2145
N3325 X-0.0336 Y0.9396 I0.0011 J0.025
N3330 G1 X-0.0331 Y0.9521
N3335 X-0.0329 Y0.956 Z-0.1084
N3340 X-0.0327 Y0.9598 Z-0.1075
N3345 X-0.0325 Y0.9634 Z-0.106
N3350 X-0.0324 Y0.9668 Z-0.104
N3355 X-0.0323 Y0.9697 Z-0.1014
N3360 X-0.0321 Y0.9723 Z-0.0984
N3365 X-0.032 Y0.9743 Z-0.0951
N3370 Y0.9758 Z-0.0915
N3375 X-0.0319 Y0.9767 Z-0.0877
N3380 Y0.977 Z-0.0837
N3385 G0 Z0.24
N3390 X0.018 Y0.9748
N3395 Z-0.065
N3400 G1 Z-0.12 F30.
N3405 Y0.9745 Z-0.1239
N3410 Y0.9735 Z-0.1277
N3415 X0.0179 Y0.972 Z-0.1313
N3420 X0.0178 Y0.97 Z-0.1347
N3425 X0.0177 Y0.9675 Z-0.1377
N3430 X0.0176 Y0.9645 Z-0.1402
N3435 X0.0174 Y0.9611 Z-0.1423
N3440 X0.0172 Y0.9575 Z-0.1438
N3445 X0.0171 Y0.9537 Z-0.1447
N3450 X0.0169 Y0.9498 Z-0.145
N3455 X0.0163 Y0.9373
N3460 G2 X-0.0098 Y0.9135 I-0.025 J0.0011
N3465 X0.0098 Y1.3425 I0.0098 J0.2145
N3470 X-0.0098 Y0.9135 I-0.0098 J-0.2145
N3475 X-0.0336 Y0.9396 I0.0011 J0.025
N3480 G1 X-0.0331 Y0.9521
N3485 X-0.0329 Y0.956 Z-0.1447
N3490 X-0.0327 Y0.9598 Z-0.1438
N3495 X-0.0325 Y0.9634 Z-0.1423
N3500 X-0.0324 Y0.9668 Z-0.1402
N3505 X-0.0323 Y0.9697 Z-0.1377
N3510 X-0.0321 Y0.9723 Z-0.1347
N3515 X-0.032 Y0.9743 Z-0.1313
N3520 Y0.9758 Z-0.1277
N3525 X-0.0319 Y0.9767 Z-0.1239
N3530 Y0.977 Z-0.12
N3535 G0 Z0.24
N3540 X0.018 Y0.9748
N3545 Z-0.1012
N3550 G1 Z-0.1563 F30.
N3555 Y0.9745 Z-0.1602
N3560 Y0.9735 Z-0.164
N3565 X0.0179 Y0.972 Z-0.1676
N3570 X0.0178 Y0.97 Z-0.1709
N3575 X0.0177 Y0.9675 Z-0.1739
N3580 X0.0176 Y0.9645 Z-0.1765
N3585 X0.0174 Y0.9611 Z-0.1785
N3590 X0.0172 Y0.9575 Z-0.18
N3595 X0.0171 Y0.9537 Z-0.1809
N3600 X0.0169 Y0.9498 Z-0.1813
N3605 X0.0163 Y0.9373
N3610 G2 X-0.0098 Y0.9135 I-0.025 J0.0011
N3615 X0.0098 Y1.3425 I0.0098 J0.2145
N3620 X-0.0098 Y0.9135 I-0.0098 J-0.2145
N3625 X-0.0336 Y0.9396 I0.0011 J0.025
N3630 G1 X-0.0331 Y0.9521
N3635 X-0.0329 Y0.956 Z-0.1809
N3640 X-0.0327 Y0.9598 Z-0.18
N3645 X-0.0325 Y0.9634 Z-0.1785
N3650 X-0.0324 Y0.9668 Z-0.1765
N3655 X-0.0323 Y0.9697 Z-0.1739
N3660 X-0.0321 Y0.9723 Z-0.1709
N3665 X-0.032 Y0.9743 Z-0.1676
N3670 Y0.9758 Z-0.164
N3675 X-0.0319 Y0.9767 Z-0.1602
N3680 Y0.977 Z-0.1563
N3685 G0 Z0.24
N3690 X0.018 Y0.9748
N3695 Z-0.1375
N3700 G1 Z-0.1925 F30.
N3705 Y0.9745 Z-0.1964
N3710 Y0.9735 Z-0.2002
N3715 X0.0179 Y0.972 Z-0.2038
N3720 X0.0178 Y0.97 Z-0.2072
N3725 X0.0177 Y0.9675 Z-0.2102
N3730 X0.0176 Y0.9645 Z-0.2127
N3735 X0.0174 Y0.9611 Z-0.2148
N3740 X0.0172 Y0.9575 Z-0.2163
N3745 X0.0171 Y0.9537 Z-0.2172
N3750 X0.0169 Y0.9498 Z-0.2175
N3755 X0.0163 Y0.9373
N3760 G2 X-0.0098 Y0.9135 I-0.025 J0.0011
N3765 X0.0098 Y1.3425 I0.0098 J0.2145
N3770 X-0.0098 Y0.9135 I-0.0098 J-0.2145
N3775 X-0.0336 Y0.9396 I0.0011 J0.025
N3780 G1 X-0.0331 Y0.9521
N3785 X-0.0329 Y0.956 Z-0.2172
N3790 X-0.0327 Y0.9598 Z-0.2163
N3795 X-0.0325 Y0.9634 Z-0.2148
N3800 X-0.0324 Y0.9668 Z-0.2127
N3805 X-0.0323 Y0.9697 Z-0.2102
N3810 X-0.0321 Y0.9723 Z-0.2072
N3815 X-0.032 Y0.9743 Z-0.2038
N3820 Y0.9758 Z-0.2002
N3825 X-0.0319 Y0.9767 Z-0.1964
N3830 Y0.977 Z-0.1925
N3835 G0 Z0.24
N3840 X0.018 Y0.9748
N3845 Z-0.1737
N3850 G1 Z-0.2287 F30.
N3855 Y0.9745 Z-0.2327
N3860 Y0.9735 Z-0.2365
N3865 X0.0179 Y0.972 Z-0.2401
N3870 X0.0178 Y0.97 Z-0.2434
N3875 X0.0177 Y0.9675 Z-0.2464
N3880 X0.0176 Y0.9645 Z-0.249
N3885 X0.0174 Y0.9611 Z-0.251
N3890 X0.0172 Y0.9575 Z-0.2525
N3895 X0.0171 Y0.9537 Z-0.2534
N3900 X0.0169 Y0.9498 Z-0.2538
N3905 X0.0163 Y0.9373
N3910 G2 X-0.0098 Y0.9135 I-0.025 J0.0011
N3915 X0.0098 Y1.3425 I0.0098 J0.2145
N3920 X-0.0098 Y0.9135 I-0.0098 J-0.2145
N3925 X-0.0336 Y0.9396 I0.0011 J0.025
N3930 G1 X-0.0331 Y0.9521
N3935 X-0.0329 Y0.956 Z-0.2534
N3940 X-0.0327 Y0.9598 Z-0.2525
N3945 X-0.0325 Y0.9634 Z-0.251
N3950 X-0.0324 Y0.9668 Z-0.249
N3955 X-0.0323 Y0.9697 Z-0.2464
N3960 X-0.0321 Y0.9723 Z-0.2434
N3965 X-0.032 Y0.9743 Z-0.2401
N3970 Y0.9758 Z-0.2365
N3975 X-0.0319 Y0.9767 Z-0.2327
N3980 Y0.977 Z-0.2287
N3985 G0 Z0.24
N3990 X0.018 Y0.9748
N3995 Z-0.21
N4000 G1 Z-0.265 F30.
N4005 Y0.9745 Z-0.2689
N4010 Y0.9735 Z-0.2727
N4015 X0.0179 Y0.972 Z-0.2763
N4020 X0.0178 Y0.97 Z-0.2797
N4025 X0.0177 Y0.9675 Z-0.2827
N4030 X0.0176 Y0.9645 Z-0.2852
N4035 X0.0174 Y0.9611 Z-0.2873
N4040 X0.0172 Y0.9575 Z-0.2888
N4045 X0.0171 Y0.9537 Z-0.2897
N4050 X0.0169 Y0.9498 Z-0.29
N4055 X0.0163 Y0.9373
N4060 G2 X-0.0098 Y0.9135 I-0.025 J0.0011
N4065 X0.0098 Y1.3425 I0.0098 J0.2145
N4070 X-0.0098 Y0.9135 I-0.0098 J-0.2145
N4075 X-0.0336 Y0.9396 I0.0011 J0.025
N4080 G1 X-0.0331 Y0.9521
N4085 X-0.0329 Y0.956 Z-0.2897
N4090 X-0.0327 Y0.9598 Z-0.2888
N4095 X-0.0325 Y0.9634 Z-0.2873
N4100 X-0.0324 Y0.9668 Z-0.2852
N4105 X-0.0323 Y0.9697 Z-0.2827
N4110 X-0.0321 Y0.9723 Z-0.2797
N4115 X-0.032 Y0.9743 Z-0.2763
N4120 Y0.9758 Z-0.2727
N4125 X-0.0319 Y0.9767 Z-0.2689
N4130 Y0.977 Z-0.265
N4135 G0 Z0.64
N4145 G28 G91 Z0.
N4150 G90
(Drill1)
N4155 M1
N4160 T3 M6
N4165 T1
N4170 S1400 M3
N4175 G54
N4180 M8
N4190 G0 X0.5709 Y1.128
N4195 G43 Z0.64 H3
N4205 Z0.24
N4210 G98 G81 X0.5709 Y1.128 Z-0.29 R0.2 F10.
N4215 X-0.5709
N4220 X-2.597 Y0.7418
N4225 Y-0.7582
N4230 X-0.5709 Y-1.128
N4235 X0.5709
N4240 G80
N4245 Z0.64
N4255 M9
N4260 G28 G91 Z0.
N4270 M30
%
