%
O00484
(T1  D=0.1875 CR=0. TAPER=118deg - ZMIN=-0.35 - drill)
N10 G90 G94 G17
N15 G20
N20 G28 G91 Z0.
N25 G90
(Drill1)
N30 T1 M6
N35 S5000 M3
N40 G54
N50 G0 X0.5709 Y1.128
N55 G43 Z0.64 H1
N65 Z0.24
N70 Z0.2
N75 Z0.08
N80 G1 Z-0.0469 F40.
N85 G0 Z-0.0269
N90 G1 Z-0.0937 F40.
N95 G0 Z-0.0737
N100 G1 Z-0.1406 F40.
N105 G0 Z-0.1206
N110 G1 Z-0.1875 F40.
N115 G0 Z0.24
N120 Z-0.1075
N125 G1 Z-0.2344 F40.
N130 G0 Z-0.2144
N135 G1 Z-0.2812 F40.
N140 G0 Z-0.2612
N145 G1 Z-0.3281 F40.
N150 G0 Z-0.3081
N155 G1 Z-0.35 F40.
N160 G0 Z0.24
N165 X-0.5709
N170 Z0.2
N175 Z0.08
N180 G1 Z-0.0469 F40.
N185 G0 Z-0.0269
N190 G1 Z-0.0937 F40.
N195 G0 Z-0.0737
N200 G1 Z-0.1406 F40.
N205 G0 Z-0.1206
N210 G1 Z-0.1875 F40.
N215 G0 Z0.24
N220 Z-0.1075
N225 G1 Z-0.2344 F40.
N230 G0 Z-0.2144
N235 G1 Z-0.2812 F40.
N240 G0 Z-0.2612
N245 G1 Z-0.3281 F40.
N250 G0 Z-0.3081
N255 G1 Z-0.35 F40.
N260 G0 Z0.24
N265 X-2.597 Y0.7418
N270 Z0.2
N275 Z0.08
N280 G1 Z-0.0469 F40.
N285 G0 Z-0.0269
N290 G1 Z-0.0937 F40.
N295 G0 Z-0.0737
N300 G1 Z-0.1406 F40.
N305 G0 Z-0.1206
N310 G1 Z-0.1875 F40.
N315 G0 Z0.24
N320 Z-0.1075
N325 G1 Z-0.2344 F40.
N330 G0 Z-0.2144
N335 G1 Z-0.2812 F40.
N340 G0 Z-0.2612
N345 G1 Z-0.3281 F40.
N350 G0 Z-0.3081
N355 G1 Z-0.35 F40.
N360 G0 Z0.24
N365 Y-0.7582
N370 Z0.2
N375 Z0.08
N380 G1 Z-0.0469 F40.
N385 G0 Z-0.0269
N390 G1 Z-0.0937 F40.
N395 G0 Z-0.0737
N400 G1 Z-0.1406 F40.
N405 G0 Z-0.1206
N410 G1 Z-0.1875 F40.
N415 G0 Z0.24
N420 Z-0.1075
N425 G1 Z-0.2344 F40.
N430 G0 Z-0.2144
N435 G1 Z-0.2812 F40.
N440 G0 Z-0.2612
N445 G1 Z-0.3281 F40.
N450 G0 Z-0.3081
N455 G1 Z-0.35 F40.
N460 G0 Z0.24
N465 X-0.5709 Y-1.128
N470 Z0.2
N475 Z0.08
N480 G1 Z-0.0469 F40.
N485 G0 Z-0.0269
N490 G1 Z-0.0937 F40.
N495 G0 Z-0.0737
N500 G1 Z-0.1406 F40.
N505 G0 Z-0.1206
N510 G1 Z-0.1875 F40.
N515 G0 Z0.24
N520 Z-0.1075
N525 G1 Z-0.2344 F40.
N530 G0 Z-0.2144
N535 G1 Z-0.2812 F40.
N540 G0 Z-0.2612
N545 G1 Z-0.3281 F40.
N550 G0 Z-0.3081
N555 G1 Z-0.35 F40.
N560 G0 Z0.24
N565 X0.5709
N570 Z0.2
N575 Z0.08
N580 G1 Z-0.0469 F40.
N585 G0 Z-0.0269
N590 G1 Z-0.0937 F40.
N595 G0 Z-0.0737
N600 G1 Z-0.1406 F40.
N605 G0 Z-0.1206
N610 G1 Z-0.1875 F40.
N615 G0 Z0.24
N620 Z-0.1075
N625 G1 Z-0.2344 F40.
N630 G0 Z-0.2144
N635 G1 Z-0.2812 F40.
N640 G0 Z-0.2612
N645 G1 Z-0.3281 F40.
N650 G0 Z-0.3081
N655 G1 Z-0.35 F40.
N660 G0 Z0.24
N665 Z0.64
(Drill2)
N675 X-1.625 Y1.625
N680 Z0.64
N690 Z0.24
N695 Z0.2
N700 Z0.08
N705 G1 Z-0.0625 F40.
N710 G0 Z-0.0425
N715 G1 Z-0.125 F40.
N720 G0 Z-0.105
N725 G1 Z-0.1875 F40.
N730 G0 Z0.24
N735 Z-0.1075
N740 G1 Z-0.25 F40.
N745 G0 Z-0.23
N750 G1 Z-0.3125 F40.
N755 G0 Z-0.2925
N760 G1 Z-0.35 F40.
N765 G0 Z0.24
N770 Y-1.625
N775 Z0.2
N780 Z0.08
N785 G1 Z-0.0625 F40.
N790 G0 Z-0.0425
N795 G1 Z-0.125 F40.
N800 G0 Z-0.105
N805 G1 Z-0.1875 F40.
N810 G0 Z0.24
N815 Z-0.1075
N820 G1 Z-0.25 F40.
N825 G0 Z-0.23
N830 G1 Z-0.3125 F40.
N835 G0 Z-0.2925
N840 G1 Z-0.35 F40.
N845 G0 Z0.24
N850 Z0.64
(Circular1)
N860 S1400 M3
N865 X-2.0328 Y0.025
N870 Z0.64
N875 Z0.0438
N880 G1 Z-0.0113 F30.
N885 G18 G2 X-2.0077 Z-0.0363 I0.025 K0.
N890 G1 X-1.9953
N895 G17 G2 X-1.9702 Y0. I0. J-0.025
N900 X-2.8358 I-0.4328 J0.
N905 X-1.9702 I0.4328 J0.
N910 X-1.9953 Y-0.025 I-0.025 J0.
N915 G1 X-2.0077
N920 G18 G3 X-2.0328 Z-0.0113 I0. K0.025
N925 G0 Z0.24
N930 Y0.025
N935 Z0.0075
N940 G1 Z-0.0475 F30.
N945 G2 X-2.0077 Z-0.0725 I0.025 K0.
N950 G1 X-1.9953
N955 G17 G2 X-1.9702 Y0. I0. J-0.025
N960 X-2.8358 I-0.4328 J0.
N965 X-1.9702 I0.4328 J0.
N970 X-1.9953 Y-0.025 I-0.025 J0.
N975 G1 X-2.0077
N980 G18 G3 X-2.0328 Z-0.0475 I0. K0.025
N985 G0 Z0.24
N990 Y0.025
N995 Z-0.0288
N1000 G1 Z-0.0837 F30.
N1005 G2 X-2.0077 Z-0.1087 I0.025 K0.
N1010 G1 X-1.9953
N1015 G17 G2 X-1.9702 Y0. I0. J-0.025
N1020 X-2.8358 I-0.4328 J0.
N1025 X-1.9702 I0.4328 J0.
N1030 X-1.9953 Y-0.025 I-0.025 J0.
N1035 G1 X-2.0077
N1040 G18 G3 X-2.0328 Z-0.0837 I0. K0.025
N1045 G0 Z0.24
N1050 Y0.025
N1055 Z-0.065
N1060 G1 Z-0.12 F30.
N1065 G2 X-2.0077 Z-0.145 I0.025 K0.
N1070 G1 X-1.9953
N1075 G17 G2 X-1.9702 Y0. I0. J-0.025
N1080 X-2.8358 I-0.4328 J0.
N1085 X-1.9702 I0.4328 J0.
N1090 X-1.9953 Y-0.025 I-0.025 J0.
N1095 G1 X-2.0077
N1100 G18 G3 X-2.0328 Z-0.12 I0. K0.025
N1105 G0 Z0.24
N1110 Y0.025
N1115 Z-0.1012
N1120 G1 Z-0.1563 F30.
N1125 G2 X-2.0077 Z-0.1813 I0.025 K0.
N1130 G1 X-1.9953
N1135 G17 G2 X-1.9702 Y0. I0. J-0.025
N1140 X-2.8358 I-0.4328 J0.
N1145 X-1.9702 I0.4328 J0.
N1150 X-1.9953 Y-0.025 I-0.025 J0.
N1155 G1 X-2.0077
N1160 G18 G3 X-2.0328 Z-0.1563 I0. K0.025
N1165 G0 Z0.24
N1170 Y0.025
N1175 Z-0.1375
N1180 G1 Z-0.1925 F30.
N1185 G2 X-2.0077 Z-0.2175 I0.025 K0.
N1190 G1 X-1.9953
N1195 G17 G2 X-1.9702 Y0. I0. J-0.025
N1200 X-2.8358 I-0.4328 J0.
N1205 X-1.9702 I0.4328 J0.
N1210 X-1.9953 Y-0.025 I-0.025 J0.
N1215 G1 X-2.0077
N1220 G18 G3 X-2.0328 Z-0.1925 I0. K0.025
N1225 G0 Z0.24
N1230 Y0.025
N1235 Z-0.1737
N1240 G1 Z-0.2287 F30.
N1245 G2 X-2.0077 Z-0.2538 I0.025 K0.
N1250 G1 X-1.9953
N1255 G17 G2 X-1.9702 Y0. I0. J-0.025
N1260 X-2.8358 I-0.4328 J0.
N1265 X-1.9702 I0.4328 J0.
N1270 X-1.9953 Y-0.025 I-0.025 J0.
N1275 G1 X-2.0077
N1280 G18 G3 X-2.0328 Z-0.2287 I0. K0.025
N1285 G0 Z0.24
N1290 Y0.025
N1295 Z-0.21
N1300 G1 Z-0.265 F30.
N1305 G2 X-2.0077 Z-0.29 I0.025 K0.
N1310 G1 X-1.9953
N1315 G17 G2 X-1.9702 Y0. I0. J-0.025
N1320 X-2.8358 I-0.4328 J0.
N1325 X-1.9702 I0.4328 J0.
N1330 X-1.9953 Y-0.025 I-0.025 J0.
N1335 G1 X-2.0077
N1340 G18 G3 X-2.0328 Z-0.265 I0. K0.025
N1345 G0 Z0.24
N1350 X-0.1457 Y-1.0774
N1355 Z0.0438
N1360 G1 Z-0.0113 F30.
N1365 X-0.146 Y-1.0772 Z-0.0152
N1370 X-0.1468 Y-1.0768 Z-0.019
N1375 X-0.1481 Y-1.0761 Z-0.0226
N1380 X-0.1499 Y-1.0751 Z-0.0259
N1385 X-0.1522 Y-1.0739 Z-0.0289
N1390 X-0.1548 Y-1.0724 Z-0.0315
N1395 X-0.1577 Y-1.0709 Z-0.0335
N1400 X-0.1609 Y-1.0691 Z-0.035
N1405 X-0.1643 Y-1.0673 Z-0.0359
N1410 X-0.1677 Y-1.0654 Z-0.0363
N1415 X-0.1787 Y-1.0595
N1420 G17 G2 X-0.1888 Y-1.0256 I0.0119 J0.022
N1425 X0.1888 Y-1.2304 I0.1888 J-0.1024
N1430 X-0.1888 Y-1.0256 I-0.1888 J0.1024
N1435 X-0.1549 Y-1.0155 I0.022 J-0.0119
N1440 G1 X-0.1439 Y-1.0215
N1445 X-0.1404 Y-1.0234 Z-0.0359
N1450 X-0.1371 Y-1.0252 Z-0.035
N1455 X-0.1339 Y-1.0269 Z-0.0335
N1460 X-0.131 Y-1.0285 Z-0.0315
N1465 X-0.1283 Y-1.0299 Z-0.0289
N1470 X-0.1261 Y-1.0311 Z-0.0259
N1475 X-0.1243 Y-1.0321 Z-0.0226
N1480 X-0.123 Y-1.0328 Z-0.019
N1485 X-0.1222 Y-1.0333 Z-0.0152
N1490 X-0.1219 Y-1.0334 Z-0.0113
N1495 G0 Z0.24
N1500 X-0.1457 Y-1.0774
N1505 Z0.0075
N1510 G1 Z-0.0475 F30.
N1515 X-0.146 Y-1.0772 Z-0.0514
N1520 X-0.1468 Y-1.0768 Z-0.0552
N1525 X-0.1481 Y-1.0761 Z-0.0588
N1530 X-0.1499 Y-1.0751 Z-0.0622
N1535 X-0.1522 Y-1.0739 Z-0.0652
N1540 X-0.1548 Y-1.0724 Z-0.0677
N1545 X-0.1577 Y-1.0709 Z-0.0698
N1550 X-0.1609 Y-1.0691 Z-0.0713
N1555 X-0.1643 Y-1.0673 Z-0.0722
N1560 X-0.1677 Y-1.0654 Z-0.0725
N1565 X-0.1787 Y-1.0595
N1570 G2 X-0.1888 Y-1.0256 I0.0119 J0.022
N1575 X0.1888 Y-1.2304 I0.1888 J-0.1024
N1580 X-0.1888 Y-1.0256 I-0.1888 J0.1024
N1585 X-0.1549 Y-1.0155 I0.022 J-0.0119
N1590 G1 X-0.1439 Y-1.0215
N1595 X-0.1404 Y-1.0234 Z-0.0722
N1600 X-0.1371 Y-1.0252 Z-0.0713
N1605 X-0.1339 Y-1.0269 Z-0.0698
N1610 X-0.131 Y-1.0285 Z-0.0677
N1615 X-0.1283 Y-1.0299 Z-0.0652
N1620 X-0.1261 Y-1.0311 Z-0.0622
N1625 X-0.1243 Y-1.0321 Z-0.0588
N1630 X-0.123 Y-1.0328 Z-0.0552
N1635 X-0.1222 Y-1.0333 Z-0.0514
N1640 X-0.1219 Y-1.0334 Z-0.0475
N1645 G0 Z0.24
N1650 X-0.1457 Y-1.0774
N1655 Z-0.0288
N1660 G1 Z-0.0837 F30.
N1665 X-0.146 Y-1.0772 Z-0.0877
N1670 X-0.1468 Y-1.0768 Z-0.0915
N1675 X-0.1481 Y-1.0761 Z-0.0951
N1680 X-0.1499 Y-1.0751 Z-0.0984
N1685 X-0.1522 Y-1.0739 Z-0.1014
N1690 X-0.1548 Y-1.0724 Z-0.104
N1695 X-0.1577 Y-1.0709 Z-0.106
N1700 X-0.1609 Y-1.0691 Z-0.1075
N1705 X-0.1643 Y-1.0673 Z-0.1084
N1710 X-0.1677 Y-1.0654 Z-0.1087
N1715 X-0.1787 Y-1.0595
N1720 G2 X-0.1888 Y-1.0256 I0.0119 J0.022
N1725 X0.1888 Y-1.2304 I0.1888 J-0.1024
N1730 X-0.1888 Y-1.0256 I-0.1888 J0.1024
N1735 X-0.1549 Y-1.0155 I0.022 J-0.0119
N1740 G1 X-0.1439 Y-1.0215
N1745 X-0.1404 Y-1.0234 Z-0.1084
N1750 X-0.1371 Y-1.0252 Z-0.1075
N1755 X-0.1339 Y-1.0269 Z-0.106
N1760 X-0.131 Y-1.0285 Z-0.104
N1765 X-0.1283 Y-1.0299 Z-0.1014
N1770 X-0.1261 Y-1.0311 Z-0.0984
N1775 X-0.1243 Y-1.0321 Z-0.0951
N1780 X-0.123 Y-1.0328 Z-0.0915
N1785 X-0.1222 Y-1.0333 Z-0.0877
N1790 X-0.1219 Y-1.0334 Z-0.0837
N1795 G0 Z0.24
N1800 X-0.1457 Y-1.0774
N1805 Z-0.065
N1810 G1 Z-0.12 F30.
N1815 X-0.146 Y-1.0772 Z-0.1239
N1820 X-0.1468 Y-1.0768 Z-0.1277
N1825 X-0.1481 Y-1.0761 Z-0.1313
N1830 X-0.1499 Y-1.0751 Z-0.1347
N1835 X-0.1522 Y-1.0739 Z-0.1377
N1840 X-0.1548 Y-1.0724 Z-0.1402
N1845 X-0.1577 Y-1.0709 Z-0.1423
N1850 X-0.1609 Y-1.0691 Z-0.1438
N1855 X-0.1643 Y-1.0673 Z-0.1447
N1860 X-0.1677 Y-1.0654 Z-0.145
N1865 X-0.1787 Y-1.0595
N1870 G2 X-0.1888 Y-1.0256 I0.0119 J0.022
N1875 X0.1888 Y-1.2304 I0.1888 J-0.1024
N1880 X-0.1888 Y-1.0256 I-0.1888 J0.1024
N1885 X-0.1549 Y-1.0155 I0.022 J-0.0119
N1890 G1 X-0.1439 Y-1.0215
N1895 X-0.1404 Y-1.0234 Z-0.1447
N1900 X-0.1371 Y-1.0252 Z-0.1438
N1905 X-0.1339 Y-1.0269 Z-0.1423
N1910 X-0.131 Y-1.0285 Z-0.1402
N1915 X-0.1283 Y-1.0299 Z-0.1377
N1920 X-0.1261 Y-1.0311 Z-0.1347
N1925 X-0.1243 Y-1.0321 Z-0.1313
N1930 X-0.123 Y-1.0328 Z-0.1277
N1935 X-0.1222 Y-1.0333 Z-0.1239
N1940 X-0.1219 Y-1.0334 Z-0.12
N1945 G0 Z0.24
N1950 X-0.1457 Y-1.0774
N1955 Z-0.1012
N1960 G1 Z-0.1563 F30.
N1965 X-0.146 Y-1.0772 Z-0.1602
N1970 X-0.1468 Y-1.0768 Z-0.164
N1975 X-0.1481 Y-1.0761 Z-0.1676
N1980 X-0.1499 Y-1.0751 Z-0.1709
N1985 X-0.1522 Y-1.0739 Z-0.1739
N1990 X-0.1548 Y-1.0724 Z-0.1765
N1995 X-0.1577 Y-1.0709 Z-0.1785
N2000 X-0.1609 Y-1.0691 Z-0.18
N2005 X-0.1643 Y-1.0673 Z-0.1809
N2010 X-0.1677 Y-1.0654 Z-0.1813
N2015 X-0.1787 Y-1.0595
N2020 G2 X-0.1888 Y-1.0256 I0.0119 J0.022
N2025 X0.1888 Y-1.2304 I0.1888 J-0.1024
N2030 X-0.1888 Y-1.0256 I-0.1888 J0.1024
N2035 X-0.1549 Y-1.0155 I0.022 J-0.0119
N2040 G1 X-0.1439 Y-1.0215
N2045 X-0.1404 Y-1.0234 Z-0.1809
N2050 X-0.1371 Y-1.0252 Z-0.18
N2055 X-0.1339 Y-1.0269 Z-0.1785
N2060 X-0.131 Y-1.0285 Z-0.1765
N2065 X-0.1283 Y-1.0299 Z-0.1739
N2070 X-0.1261 Y-1.0311 Z-0.1709
N2075 X-0.1243 Y-1.0321 Z-0.1676
N2080 X-0.123 Y-1.0328 Z-0.164
N2085 X-0.1222 Y-1.0333 Z-0.1602
N2090 X-0.1219 Y-1.0334 Z-0.1563
N2095 G0 Z0.24
N2100 X-0.1457 Y-1.0774
N2105 Z-0.1375
N2110 G1 Z-0.1925 F30.
N2115 X-0.146 Y-1.0772 Z-0.1964
N2120 X-0.1468 Y-1.0768 Z-0.2002
N2125 X-0.1481 Y-1.0761 Z-0.2038
N2130 X-0.1499 Y-1.0751 Z-0.2072
N2135 X-0.1522 Y-1.0739 Z-0.2102
N2140 X-0.1548 Y-1.0724 Z-0.2127
N2145 X-0.1577 Y-1.0709 Z-0.2148
N2150 X-0.1609 Y-1.0691 Z-0.2163
N2155 X-0.1643 Y-1.0673 Z-0.2172
N2160 X-0.1677 Y-1.0654 Z-0.2175
N2165 X-0.1787 Y-1.0595
N2170 G2 X-0.1888 Y-1.0256 I0.0119 J0.022
N2175 X0.1888 Y-1.2304 I0.1888 J-0.1024
N2180 X-0.1888 Y-1.0256 I-0.1888 J0.1024
N2185 X-0.1549 Y-1.0155 I0.022 J-0.0119
N2190 G1 X-0.1439 Y-1.0215
N2195 X-0.1404 Y-1.0234 Z-0.2172
N2200 X-0.1371 Y-1.0252 Z-0.2163
N2205 X-0.1339 Y-1.0269 Z-0.2148
N2210 X-0.131 Y-1.0285 Z-0.2127
N2215 X-0.1283 Y-1.0299 Z-0.2102
N2220 X-0.1261 Y-1.0311 Z-0.2072
N2225 X-0.1243 Y-1.0321 Z-0.2038
N2230 X-0.123 Y-1.0328 Z-0.2002
N2235 X-0.1222 Y-1.0333 Z-0.1964
N2240 X-0.1219 Y-1.0334 Z-0.1925
N2245 G0 Z0.24
N2250 X-0.1457 Y-1.0774
N2255 Z-0.1737
N2260 G1 Z-0.2287 F30.
N2265 X-0.146 Y-1.0772 Z-0.2327
N2270 X-0.1468 Y-1.0768 Z-0.2365
N2275 X-0.1481 Y-1.0761 Z-0.2401
N2280 X-0.1499 Y-1.0751 Z-0.2434
N2285 X-0.1522 Y-1.0739 Z-0.2464
N2290 X-0.1548 Y-1.0724 Z-0.249
N2295 X-0.1577 Y-1.0709 Z-0.251
N2300 X-0.1609 Y-1.0691 Z-0.2525
N2305 X-0.1643 Y-1.0673 Z-0.2534
N2310 X-0.1677 Y-1.0654 Z-0.2538
N2315 X-0.1787 Y-1.0595
N2320 G2 X-0.1888 Y-1.0256 I0.0119 J0.022
N2325 X0.1888 Y-1.2304 I0.1888 J-0.1024
N2330 X-0.1888 Y-1.0256 I-0.1888 J0.1024
N2335 X-0.1549 Y-1.0155 I0.022 J-0.0119
N2340 G1 X-0.1439 Y-1.0215
N2345 X-0.1404 Y-1.0234 Z-0.2534
N2350 X-0.1371 Y-1.0252 Z-0.2525
N2355 X-0.1339 Y-1.0269 Z-0.251
N2360 X-0.131 Y-1.0285 Z-0.249
N2365 X-0.1283 Y-1.0299 Z-0.2464
N2370 X-0.1261 Y-1.0311 Z-0.2434
N2375 X-0.1243 Y-1.0321 Z-0.2401
N2380 X-0.123 Y-1.0328 Z-0.2365
N2385 X-0.1222 Y-1.0333 Z-0.2327
N2390 X-0.1219 Y-1.0334 Z-0.2287
N2395 G0 Z0.24
N2400 X-0.1457 Y-1.0774
N2405 Z-0.21
N2410 G1 Z-0.265 F30.
N2415 X-0.146 Y-1.0772 Z-0.2689
N2420 X-0.1468 Y-1.0768 Z-0.2727
N2425 X-0.1481 Y-1.0761 Z-0.2763
N2430 X-0.1499 Y-1.0751 Z-0.2797
N2435 X-0.1522 Y-1.0739 Z-0.2827
N2440 X-0.1548 Y-1.0724 Z-0.2852
N2445 X-0.1577 Y-1.0709 Z-0.2873
N2450 X-0.1609 Y-1.0691 Z-0.2888
N2455 X-0.1643 Y-1.0673 Z-0.2897
N2460 X-0.1677 Y-1.0654 Z-0.29
N2465 X-0.1787 Y-1.0595
N2470 G2 X-0.1888 Y-1.0256 I0.0119 J0.022
N2475 X0.1888 Y-1.2304 I0.1888 J-0.1024
N2480 X-0.1888 Y-1.0256 I-0.1888 J0.1024
N2485 X-0.1549 Y-1.0155 I0.022 J-0.0119
N2490 G1 X-0.1439 Y-1.0215
N2495 X-0.1404 Y-1.0234 Z-0.2897
N2500 X-0.1371 Y-1.0252 Z-0.2888
N2505 X-0.1339 Y-1.0269 Z-0.2873
N2510 X-0.131 Y-1.0285 Z-0.2852
N2515 X-0.1283 Y-1.0299 Z-0.2827
N2520 X-0.1261 Y-1.0311 Z-0.2797
N2525 X-0.1243 Y-1.0321 Z-0.2763
N2530 X-0.123 Y-1.0328 Z-0.2727
N2535 X-0.1222 Y-1.0333 Z-0.2689
N2540 X-0.1219 Y-1.0334 Z-0.265
N2545 G0 Z0.24
N2550 X-0.0185 Y-0.3706
N2555 Z0.0438
N2560 G1 Z-0.0113 F30.
N2565 X-0.0186 Y-0.3709 Z-0.0152
N2570 X-0.0187 Y-0.3718 Z-0.019
N2575 X-0.0189 Y-0.3733 Z-0.0226
N2580 X-0.0191 Y-0.3754 Z-0.0259
N2585 X-0.0194 Y-0.3779 Z-0.0289
N2590 X-0.0198 Y-0.3809 Z-0.0315
N2595 X-0.0201 Y-0.3842 Z-0.0335
N2600 X-0.0206 Y-0.3878 Z-0.035
N2605 X-0.021 Y-0.3916 Z-0.0359
N2610 X-0.0215 Y-0.3955 Z-0.0363
N2615 X-0.0229 Y-0.4079
N2620 G2 X-0.0507 Y-0.4298 I-0.0248 J0.0029
N2625 X0.0507 Y0.4298 I0.0507 J0.4298
N2630 X-0.0507 Y-0.4298 I-0.0507 J-0.4298
N2635 X-0.0726 Y-0.402 I0.0029 J0.0248
N2640 G1 X-0.0711 Y-0.3896
N2645 X-0.0707 Y-0.3857 Z-0.0359
N2650 X-0.0702 Y-0.3819 Z-0.035
N2655 X-0.0698 Y-0.3783 Z-0.0335
N2660 X-0.0694 Y-0.375 Z-0.0315
N2665 X-0.0691 Y-0.372 Z-0.0289
N2670 X-0.0688 Y-0.3695 Z-0.0259
N2675 X-0.0685 Y-0.3675 Z-0.0226
N2680 X-0.0683 Y-0.366 Z-0.019
N2685 X-0.0682 Y-0.3651 Z-0.0152
N2690 Y-0.3648 Z-0.0113
N2695 G0 Z0.24
N2700 X-0.0185 Y-0.3706
N2705 Z0.0075
N2710 G1 Z-0.0475 F30.
N2715 X-0.0186 Y-0.3709 Z-0.0514
N2720 X-0.0187 Y-0.3718 Z-0.0552
N2725 X-0.0189 Y-0.3733 Z-0.0588
N2730 X-0.0191 Y-0.3754 Z-0.0622
N2735 X-0.0194 Y-0.3779 Z-0.0652
N2740 X-0.0198 Y-0.3809 Z-0.0677
N2745 X-0.0201 Y-0.3842 Z-0.0698
N2750 X-0.0206 Y-0.3878 Z-0.0713
N2755 X-0.021 Y-0.3916 Z-0.0722
N2760 X-0.0215 Y-0.3955 Z-0.0725
N2765 X-0.0229 Y-0.4079
N2770 G2 X-0.0507 Y-0.4298 I-0.0248 J0.0029
N2775 X0.0507 Y0.4298 I0.0507 J0.4298
N2780 X-0.0507 Y-0.4298 I-0.0507 J-0.4298
N2785 X-0.0726 Y-0.402 I0.0029 J0.0248
N2790 G1 X-0.0711 Y-0.3896
N2795 X-0.0707 Y-0.3857 Z-0.0722
N2800 X-0.0702 Y-0.3819 Z-0.0713
N2805 X-0.0698 Y-0.3783 Z-0.0698
N2810 X-0.0694 Y-0.375 Z-0.0677
N2815 X-0.0691 Y-0.372 Z-0.0652
N2820 X-0.0688 Y-0.3695 Z-0.0622
N2825 X-0.0685 Y-0.3675 Z-0.0588
N2830 X-0.0683 Y-0.366 Z-0.0552
N2835 X-0.0682 Y-0.3651 Z-0.0514
N2840 Y-0.3648 Z-0.0475
N2845 G0 Z0.24
N2850 X-0.0185 Y-0.3706
N2855 Z-0.0288
N2860 G1 Z-0.0837 F30.
N2865 X-0.0186 Y-0.3709 Z-0.0877
N2870 X-0.0187 Y-0.3718 Z-0.0915
N2875 X-0.0189 Y-0.3733 Z-0.0951
N2880 X-0.0191 Y-0.3754 Z-0.0984
N2885 X-0.0194 Y-0.3779 Z-0.1014
N2890 X-0.0198 Y-0.3809 Z-0.104
N2895 X-0.0201 Y-0.3842 Z-0.106
N2900 X-0.0206 Y-0.3878 Z-0.1075
N2905 X-0.021 Y-0.3916 Z-0.1084
N2910 X-0.0215 Y-0.3955 Z-0.1087
N2915 X-0.0229 Y-0.4079
N2920 G2 X-0.0507 Y-0.4298 I-0.0248 J0.0029
N2925 X0.0507 Y0.4298 I0.0507 J0.4298
N2930 X-0.0507 Y-0.4298 I-0.0507 J-0.4298
N2935 X-0.0726 Y-0.402 I0.0029 J0.0248
N2940 G1 X-0.0711 Y-0.3896
N2945 X-0.0707 Y-0.3857 Z-0.1084
N2950 X-0.0702 Y-0.3819 Z-0.1075
N2955 X-0.0698 Y-0.3783 Z-0.106
N2960 X-0.0694 Y-0.375 Z-0.104
N2965 X-0.0691 Y-0.372 Z-0.1014
N2970 X-0.0688 Y-0.3695 Z-0.0984
N2975 X-0.0685 Y-0.3675 Z-0.0951
N2980 X-0.0683 Y-0.366 Z-0.0915
N2985 X-0.0682 Y-0.3651 Z-0.0877
N2990 Y-0.3648 Z-0.0837
N2995 G0 Z0.24
N3000 X-0.0185 Y-0.3706
N3005 Z-0.065
N3010 G1 Z-0.12 F30.
N3015 X-0.0186 Y-0.3709 Z-0.1239
N3020 X-0.0187 Y-0.3718 Z-0.1277
N3025 X-0.0189 Y-0.3733 Z-0.1313
N3030 X-0.0191 Y-0.3754 Z-0.1347
N3035 X-0.0194 Y-0.3779 Z-0.1377
N3040 X-0.0198 Y-0.3809 Z-0.1402
N3045 X-0.0201 Y-0.3842 Z-0.1423
N3050 X-0.0206 Y-0.3878 Z-0.1438
N3055 X-0.021 Y-0.3916 Z-0.1447
N3060 X-0.0215 Y-0.3955 Z-0.145
N3065 X-0.0229 Y-0.4079
N3070 G2 X-0.0507 Y-0.4298 I-0.0248 J0.0029
N3075 X0.0507 Y0.4298 I0.0507 J0.4298
N3080 X-0.0507 Y-0.4298 I-0.0507 J-0.4298
N3085 X-0.0726 Y-0.402 I0.0029 J0.0248
N3090 G1 X-0.0711 Y-0.3896
N3095 X-0.0707 Y-0.3857 Z-0.1447
N3100 X-0.0702 Y-0.3819 Z-0.1438
N3105 X-0.0698 Y-0.3783 Z-0.1423
N3110 X-0.0694 Y-0.375 Z-0.1402
N3115 X-0.0691 Y-0.372 Z-0.1377
N3120 X-0.0688 Y-0.3695 Z-0.1347
N3125 X-0.0685 Y-0.3675 Z-0.1313
N3130 X-0.0683 Y-0.366 Z-0.1277
N3135 X-0.0682 Y-0.3651 Z-0.1239
N3140 Y-0.3648 Z-0.12
N3145 G0 Z0.24
N3150 X-0.0185 Y-0.3706
N3155 Z-0.1012
N3160 G1 Z-0.1563 F30.
N3165 X-0.0186 Y-0.3709 Z-0.1602
N3170 X-0.0187 Y-0.3718 Z-0.164
N3175 X-0.0189 Y-0.3733 Z-0.1676
N3180 X-0.0191 Y-0.3754 Z-0.1709
N3185 X-0.0194 Y-0.3779 Z-0.1739
N3190 X-0.0198 Y-0.3809 Z-0.1765
N3195 X-0.0201 Y-0.3842 Z-0.1785
N3200 X-0.0206 Y-0.3878 Z-0.18
N3205 X-0.021 Y-0.3916 Z-0.1809
N3210 X-0.0215 Y-0.3955 Z-0.1813
N3215 X-0.0229 Y-0.4079
N3220 G2 X-0.0507 Y-0.4298 I-0.0248 J0.0029
N3225 X0.0507 Y0.4298 I0.0507 J0.4298
N3230 X-0.0507 Y-0.4298 I-0.0507 J-0.4298
N3235 X-0.0726 Y-0.402 I0.0029 J0.0248
N3240 G1 X-0.0711 Y-0.3896
N3245 X-0.0707 Y-0.3857 Z-0.1809
N3250 X-0.0702 Y-0.3819 Z-0.18
N3255 X-0.0698 Y-0.3783 Z-0.1785
N3260 X-0.0694 Y-0.375 Z-0.1765
N3265 X-0.0691 Y-0.372 Z-0.1739
N3270 X-0.0688 Y-0.3695 Z-0.1709
N3275 X-0.0685 Y-0.3675 Z-0.1676
N3280 X-0.0683 Y-0.366 Z-0.164
N3285 X-0.0682 Y-0.3651 Z-0.1602
N3290 Y-0.3648 Z-0.1563
N3295 G0 Z0.24
N3300 X-0.0185 Y-0.3706
N3305 Z-0.1375
N3310 G1 Z-0.1925 F30.
N3315 X-0.0186 Y-0.3709 Z-0.1964
N3320 X-0.0187 Y-0.3718 Z-0.2002
N3325 X-0.0189 Y-0.3733 Z-0.2038
N3330 X-0.0191 Y-0.3754 Z-0.2072
N3335 X-0.0194 Y-0.3779 Z-0.2102
N3340 X-0.0198 Y-0.3809 Z-0.2127
N3345 X-0.0201 Y-0.3842 Z-0.2148
N3350 X-0.0206 Y-0.3878 Z-0.2163
N3355 X-0.021 Y-0.3916 Z-0.2172
N3360 X-0.0215 Y-0.3955 Z-0.2175
N3365 X-0.0229 Y-0.4079
N3370 G2 X-0.0507 Y-0.4298 I-0.0248 J0.0029
N3375 X0.0507 Y0.4298 I0.0507 J0.4298
N3380 X-0.0507 Y-0.4298 I-0.0507 J-0.4298
N3385 X-0.0726 Y-0.402 I0.0029 J0.0248
N3390 G1 X-0.0711 Y-0.3896
N3395 X-0.0707 Y-0.3857 Z-0.2172
N3400 X-0.0702 Y-0.3819 Z-0.2163
N3405 X-0.0698 Y-0.3783 Z-0.2148
N3410 X-0.0694 Y-0.375 Z-0.2127
N3415 X-0.0691 Y-0.372 Z-0.2102
N3420 X-0.0688 Y-0.3695 Z-0.2072
N3425 X-0.0685 Y-0.3675 Z-0.2038
N3430 X-0.0683 Y-0.366 Z-0.2002
N3435 X-0.0682 Y-0.3651 Z-0.1964
N3440 Y-0.3648 Z-0.1925
N3445 G0 Z0.24
N3450 X-0.0185 Y-0.3706
N3455 Z-0.1737
N3460 G1 Z-0.2287 F30.
N3465 X-0.0186 Y-0.3709 Z-0.2327
N3470 X-0.0187 Y-0.3718 Z-0.2365
N3475 X-0.0189 Y-0.3733 Z-0.2401
N3480 X-0.0191 Y-0.3754 Z-0.2434
N3485 X-0.0194 Y-0.3779 Z-0.2464
N3490 X-0.0198 Y-0.3809 Z-0.249
N3495 X-0.0201 Y-0.3842 Z-0.251
N3500 X-0.0206 Y-0.3878 Z-0.2525
N3505 X-0.021 Y-0.3916 Z-0.2534
N3510 X-0.0215 Y-0.3955 Z-0.2538
N3515 X-0.0229 Y-0.4079
N3520 G2 X-0.0507 Y-0.4298 I-0.0248 J0.0029
N3525 X0.0507 Y0.4298 I0.0507 J0.4298
N3530 X-0.0507 Y-0.4298 I-0.0507 J-0.4298
N3535 X-0.0726 Y-0.402 I0.0029 J0.0248
N3540 G1 X-0.0711 Y-0.3896
N3545 X-0.0707 Y-0.3857 Z-0.2534
N3550 X-0.0702 Y-0.3819 Z-0.2525
N3555 X-0.0698 Y-0.3783 Z-0.251
N3560 X-0.0694 Y-0.375 Z-0.249
N3565 X-0.0691 Y-0.372 Z-0.2464
N3570 X-0.0688 Y-0.3695 Z-0.2434
N3575 X-0.0685 Y-0.3675 Z-0.2401
N3580 X-0.0683 Y-0.366 Z-0.2365
N3585 X-0.0682 Y-0.3651 Z-0.2327
N3590 Y-0.3648 Z-0.2287
N3595 G0 Z0.24
N3600 X-0.0185 Y-0.3706
N3605 Z-0.21
N3610 G1 Z-0.265 F30.
N3615 X-0.0186 Y-0.3709 Z-0.2689
N3620 X-0.0187 Y-0.3718 Z-0.2727
N3625 X-0.0189 Y-0.3733 Z-0.2763
N3630 X-0.0191 Y-0.3754 Z-0.2797
N3635 X-0.0194 Y-0.3779 Z-0.2827
N3640 X-0.0198 Y-0.3809 Z-0.2852
N3645 X-0.0201 Y-0.3842 Z-0.2873
N3650 X-0.0206 Y-0.3878 Z-0.2888
N3655 X-0.021 Y-0.3916 Z-0.2897
N3660 X-0.0215 Y-0.3955 Z-0.29
N3665 X-0.0229 Y-0.4079
N3670 G2 X-0.0507 Y-0.4298 I-0.0248 J0.0029
N3675 X0.0507 Y0.4298 I0.0507 J0.4298
N3680 X-0.0507 Y-0.4298 I-0.0507 J-0.4298
N3685 X-0.0726 Y-0.402 I0.0029 J0.0248
N3690 G1 X-0.0711 Y-0.3896
N3695 X-0.0707 Y-0.3857 Z-0.2897
N3700 X-0.0702 Y-0.3819 Z-0.2888
N3705 X-0.0698 Y-0.3783 Z-0.2873
N3710 X-0.0694 Y-0.375 Z-0.2852
N3715 X-0.0691 Y-0.372 Z-0.2827
N3720 X-0.0688 Y-0.3695 Z-0.2797
N3725 X-0.0685 Y-0.3675 Z-0.2763
N3730 X-0.0683 Y-0.366 Z-0.2727
N3735 X-0.0682 Y-0.3651 Z-0.2689
N3740 Y-0.3648 Z-0.265
N3745 G0 Z0.24
N3750 X0.018 Y0.9748
N3755 Z0.0438
N3760 G1 Z-0.0113 F30.
N3765 Y0.9745 Z-0.0152
N3770 Y0.9735 Z-0.019
N3775 X0.0179 Y0.972 Z-0.0226
N3780 X0.0178 Y0.97 Z-0.0259
N3785 X0.0177 Y0.9675 Z-0.0289
N3790 X0.0176 Y0.9645 Z-0.0315
N3795 X0.0174 Y0.9611 Z-0.0335
N3800 X0.0172 Y0.9575 Z-0.035
N3805 X0.0171 Y0.9537 Z-0.0359
N3810 X0.0169 Y0.9498 Z-0.0363
N3815 X0.0163 Y0.9373
N3820 G2 X-0.0098 Y0.9135 I-0.025 J0.0011
N3825 X0.0098 Y1.3425 I0.0098 J0.2145
N3830 X-0.0098 Y0.9135 I-0.0098 J-0.2145
N3835 X-0.0336 Y0.9396 I0.0011 J0.025
N3840 G1 X-0.0331 Y0.9521
N3845 X-0.0329 Y0.956 Z-0.0359
N3850 X-0.0327 Y0.9598 Z-0.035
N3855 X-0.0325 Y0.9634 Z-0.0335
N3860 X-0.0324 Y0.9668 Z-0.0315
N3865 X-0.0323 Y0.9697 Z-0.0289
N3870 X-0.0321 Y0.9723 Z-0.0259
N3875 X-0.032 Y0.9743 Z-0.0226
N3880 Y0.9758 Z-0.019
N3885 X-0.0319 Y0.9767 Z-0.0152
N3890 Y0.977 Z-0.0113
N3895 G0 Z0.24
N3900 X0.018 Y0.9748
N3905 Z0.0075
N3910 G1 Z-0.0475 F30.
N3915 Y0.9745 Z-0.0514
N3920 Y0.9735 Z-0.0552
N3925 X0.0179 Y0.972 Z-0.0588
N3930 X0.0178 Y0.97 Z-0.0622
N3935 X0.0177 Y0.9675 Z-0.0652
N3940 X0.0176 Y0.9645 Z-0.0677
N3945 X0.0174 Y0.9611 Z-0.0698
N3950 X0.0172 Y0.9575 Z-0.0713
N3955 X0.0171 Y0.9537 Z-0.0722
N3960 X0.0169 Y0.9498 Z-0.0725
N3965 X0.0163 Y0.9373
N3970 G2 X-0.0098 Y0.9135 I-0.025 J0.0011
N3975 X0.0098 Y1.3425 I0.0098 J0.2145
N3980 X-0.0098 Y0.9135 I-0.0098 J-0.2145
N3985 X-0.0336 Y0.9396 I0.0011 J0.025
N3990 G1 X-0.0331 Y0.9521
N3995 X-0.0329 Y0.956 Z-0.0722
N4000 X-0.0327 Y0.9598 Z-0.0713
N4005 X-0.0325 Y0.9634 Z-0.0698
N4010 X-0.0324 Y0.9668 Z-0.0677
N4015 X-0.0323 Y0.9697 Z-0.0652
N4020 X-0.0321 Y0.9723 Z-0.0622
N4025 X-0.032 Y0.9743 Z-0.0588
N4030 Y0.9758 Z-0.0552
N4035 X-0.0319 Y0.9767 Z-0.0514
N4040 Y0.977 Z-0.0475
N4045 G0 Z0.24
N4050 X0.018 Y0.9748
N4055 Z-0.0288
N4060 G1 Z-0.0837 F30.
N4065 Y0.9745 Z-0.0877
N4070 Y0.9735 Z-0.0915
N4075 X0.0179 Y0.972 Z-0.0951
N4080 X0.0178 Y0.97 Z-0.0984
N4085 X0.0177 Y0.9675 Z-0.1014
N4090 X0.0176 Y0.9645 Z-0.104
N4095 X0.0174 Y0.9611 Z-0.106
N4100 X0.0172 Y0.9575 Z-0.1075
N4105 X0.0171 Y0.9537 Z-0.1084
N4110 X0.0169 Y0.9498 Z-0.1087
N4115 X0.0163 Y0.9373
N4120 G2 X-0.0098 Y0.9135 I-0.025 J0.0011
N4125 X0.0098 Y1.3425 I0.0098 J0.2145
N4130 X-0.0098 Y0.9135 I-0.0098 J-0.2145
N4135 X-0.0336 Y0.9396 I0.0011 J0.025
N4140 G1 X-0.0331 Y0.9521
N4145 X-0.0329 Y0.956 Z-0.1084
N4150 X-0.0327 Y0.9598 Z-0.1075
N4155 X-0.0325 Y0.9634 Z-0.106
N4160 X-0.0324 Y0.9668 Z-0.104
N4165 X-0.0323 Y0.9697 Z-0.1014
N4170 X-0.0321 Y0.9723 Z-0.0984
N4175 X-0.032 Y0.9743 Z-0.0951
N4180 Y0.9758 Z-0.0915
N4185 X-0.0319 Y0.9767 Z-0.0877
N4190 Y0.977 Z-0.0837
N4195 G0 Z0.24
N4200 X0.018 Y0.9748
N4205 Z-0.065
N4210 G1 Z-0.12 F30.
N4215 Y0.9745 Z-0.1239
N4220 Y0.9735 Z-0.1277
N4225 X0.0179 Y0.972 Z-0.1313
N4230 X0.0178 Y0.97 Z-0.1347
N4235 X0.0177 Y0.9675 Z-0.1377
N4240 X0.0176 Y0.9645 Z-0.1402
N4245 X0.0174 Y0.9611 Z-0.1423
N4250 X0.0172 Y0.9575 Z-0.1438
N4255 X0.0171 Y0.9537 Z-0.1447
N4260 X0.0169 Y0.9498 Z-0.145
N4265 X0.0163 Y0.9373
N4270 G2 X-0.0098 Y0.9135 I-0.025 J0.0011
N4275 X0.0098 Y1.3425 I0.0098 J0.2145
N4280 X-0.0098 Y0.9135 I-0.0098 J-0.2145
N4285 X-0.0336 Y0.9396 I0.0011 J0.025
N4290 G1 X-0.0331 Y0.9521
N4295 X-0.0329 Y0.956 Z-0.1447
N4300 X-0.0327 Y0.9598 Z-0.1438
N4305 X-0.0325 Y0.9634 Z-0.1423
N4310 X-0.0324 Y0.9668 Z-0.1402
N4315 X-0.0323 Y0.9697 Z-0.1377
N4320 X-0.0321 Y0.9723 Z-0.1347
N4325 X-0.032 Y0.9743 Z-0.1313
N4330 Y0.9758 Z-0.1277
N4335 X-0.0319 Y0.9767 Z-0.1239
N4340 Y0.977 Z-0.12
N4345 G0 Z0.24
N4350 X0.018 Y0.9748
N4355 Z-0.1012
N4360 G1 Z-0.1563 F30.
N4365 Y0.9745 Z-0.1602
N4370 Y0.9735 Z-0.164
N4375 X0.0179 Y0.972 Z-0.1676
N4380 X0.0178 Y0.97 Z-0.1709
N4385 X0.0177 Y0.9675 Z-0.1739
N4390 X0.0176 Y0.9645 Z-0.1765
N4395 X0.0174 Y0.9611 Z-0.1785
N4400 X0.0172 Y0.9575 Z-0.18
N4405 X0.0171 Y0.9537 Z-0.1809
N4410 X0.0169 Y0.9498 Z-0.1813
N4415 X0.0163 Y0.9373
N4420 G2 X-0.0098 Y0.9135 I-0.025 J0.0011
N4425 X0.0098 Y1.3425 I0.0098 J0.2145
N4430 X-0.0098 Y0.9135 I-0.0098 J-0.2145
N4435 X-0.0336 Y0.9396 I0.0011 J0.025
N4440 G1 X-0.0331 Y0.9521
N4445 X-0.0329 Y0.956 Z-0.1809
N4450 X-0.0327 Y0.9598 Z-0.18
N4455 X-0.0325 Y0.9634 Z-0.1785
N4460 X-0.0324 Y0.9668 Z-0.1765
N4465 X-0.0323 Y0.9697 Z-0.1739
N4470 X-0.0321 Y0.9723 Z-0.1709
N4475 X-0.032 Y0.9743 Z-0.1676
N4480 Y0.9758 Z-0.164
N4485 X-0.0319 Y0.9767 Z-0.1602
N4490 Y0.977 Z-0.1563
N4495 G0 Z0.24
N4500 X0.018 Y0.9748
N4505 Z-0.1375
N4510 G1 Z-0.1925 F30.
N4515 Y0.9745 Z-0.1964
N4520 Y0.9735 Z-0.2002
N4525 X0.0179 Y0.972 Z-0.2038
N4530 X0.0178 Y0.97 Z-0.2072
N4535 X0.0177 Y0.9675 Z-0.2102
N4540 X0.0176 Y0.9645 Z-0.2127
N4545 X0.0174 Y0.9611 Z-0.2148
N4550 X0.0172 Y0.9575 Z-0.2163
N4555 X0.0171 Y0.9537 Z-0.2172
N4560 X0.0169 Y0.9498 Z-0.2175
N4565 X0.0163 Y0.9373
N4570 G2 X-0.0098 Y0.9135 I-0.025 J0.0011
N4575 X0.0098 Y1.3425 I0.0098 J0.2145
N4580 X-0.0098 Y0.9135 I-0.0098 J-0.2145
N4585 X-0.0336 Y0.9396 I0.0011 J0.025
N4590 G1 X-0.0331 Y0.9521
N4595 X-0.0329 Y0.956 Z-0.2172
N4600 X-0.0327 Y0.9598 Z-0.2163
N4605 X-0.0325 Y0.9634 Z-0.2148
N4610 X-0.0324 Y0.9668 Z-0.2127
N4615 X-0.0323 Y0.9697 Z-0.2102
N4620 X-0.0321 Y0.9723 Z-0.2072
N4625 X-0.032 Y0.9743 Z-0.2038
N4630 Y0.9758 Z-0.2002
N4635 X-0.0319 Y0.9767 Z-0.1964
N4640 Y0.977 Z-0.1925
N4645 G0 Z0.24
N4650 X0.018 Y0.9748
N4655 Z-0.1737
N4660 G1 Z-0.2287 F30.
N4665 Y0.9745 Z-0.2327
N4670 Y0.9735 Z-0.2365
N4675 X0.0179 Y0.972 Z-0.2401
N4680 X0.0178 Y0.97 Z-0.2434
N4685 X0.0177 Y0.9675 Z-0.2464
N4690 X0.0176 Y0.9645 Z-0.249
N4695 X0.0174 Y0.9611 Z-0.251
N4700 X0.0172 Y0.9575 Z-0.2525
N4705 X0.0171 Y0.9537 Z-0.2534
N4710 X0.0169 Y0.9498 Z-0.2538
N4715 X0.0163 Y0.9373
N4720 G2 X-0.0098 Y0.9135 I-0.025 J0.0011
N4725 X0.0098 Y1.3425 I0.0098 J0.2145
N4730 X-0.0098 Y0.9135 I-0.0098 J-0.2145
N4735 X-0.0336 Y0.9396 I0.0011 J0.025
N4740 G1 X-0.0331 Y0.9521
N4745 X-0.0329 Y0.956 Z-0.2534
N4750 X-0.0327 Y0.9598 Z-0.2525
N4755 X-0.0325 Y0.9634 Z-0.251
N4760 X-0.0324 Y0.9668 Z-0.249
N4765 X-0.0323 Y0.9697 Z-0.2464
N4770 X-0.0321 Y0.9723 Z-0.2434
N4775 X-0.032 Y0.9743 Z-0.2401
N4780 Y0.9758 Z-0.2365
N4785 X-0.0319 Y0.9767 Z-0.2327
N4790 Y0.977 Z-0.2287
N4795 G0 Z0.24
N4800 X0.018 Y0.9748
N4805 Z-0.21
N4810 G1 Z-0.265 F30.
N4815 Y0.9745 Z-0.2689
N4820 Y0.9735 Z-0.2727
N4825 X0.0179 Y0.972 Z-0.2763
N4830 X0.0178 Y0.97 Z-0.2797
N4835 X0.0177 Y0.9675 Z-0.2827
N4840 X0.0176 Y0.9645 Z-0.2852
N4845 X0.0174 Y0.9611 Z-0.2873
N4850 X0.0172 Y0.9575 Z-0.2888
N4855 X0.0171 Y0.9537 Z-0.2897
N4860 X0.0169 Y0.9498 Z-0.29
N4865 X0.0163 Y0.9373
N4870 G2 X-0.0098 Y0.9135 I-0.025 J0.0011
N4875 X0.0098 Y1.3425 I0.0098 J0.2145
N4880 X-0.0098 Y0.9135 I-0.0098 J-0.2145
N4885 X-0.0336 Y0.9396 I0.0011 J0.025
N4890 G1 X-0.0331 Y0.9521
N4895 X-0.0329 Y0.956 Z-0.2897
N4900 X-0.0327 Y0.9598 Z-0.2888
N4905 X-0.0325 Y0.9634 Z-0.2873
N4910 X-0.0324 Y0.9668 Z-0.2852
N4915 X-0.0323 Y0.9697 Z-0.2827
N4920 X-0.0321 Y0.9723 Z-0.2797
N4925 X-0.032 Y0.9743 Z-0.2763
N4930 Y0.9758 Z-0.2727
N4935 X-0.0319 Y0.9767 Z-0.2689
N4940 Y0.977 Z-0.265
N4945 G0 Z0.64
(2D Contour1)
N4955 X1.625 Y0.
N4960 Z0.64
N4965 Z0.24
N4970 G1 Z0.1194 F10.
N4975 Z0.
N4980 Y2. F30.
N4985 G3 X1.5 Y2.125 I-0.125 J0.
N4990 G1 X-3.25
N4995 G3 X-3.375 Y2. I0. J-0.125
N5000 G1 Y-2.
N5005 G3 X-3.25 Y-2.125 I0.125 J0.
N5010 G1 X1.5
N5015 G3 X1.625 Y-2. I0. J0.125
N5020 G1 Y0.
N5025 G2 X1.65 Y0.025 I0.025 J0.
N5030 G1 X1.675
N5035 G18 G2 X1.7 Z0.025 I0. K0.025
N5040 G1 X1.625 Y0.
N5045 Z-0.04 F10.
N5050 Y2. F30.
N5055 G17 G3 X1.5 Y2.125 I-0.125 J0.
N5060 G1 X-3.25
N5065 G3 X-3.375 Y2. I0. J-0.125
N5070 G1 Y-2.
N5075 G3 X-3.25 Y-2.125 I0.125 J0.
N5080 G1 X1.5
N5085 G3 X1.625 Y-2. I0. J0.125
N5090 G1 Y0.
N5095 G2 X1.65 Y0.025 I0.025 J0.
N5100 G1 X1.675
N5105 G18 G2 X1.7 Z-0.015 I0. K0.025
N5110 G1 Z0.24
N5115 G0 Z0.64
N5120 X1.625 Y0.
N5125 Z0.24
N5130 G1 Z0.1194 F10.
N5135 Z0.
N5140 Y2. F30.
N5145 G17 G3 X1.5 Y2.125 I-0.125 J0.
N5150 G1 X-3.25
N5155 G3 X-3.375 Y2. I0. J-0.125
N5160 G1 Y-2.
N5165 G3 X-3.25 Y-2.125 I0.125 J0.
N5170 G1 X1.5
N5175 G3 X1.625 Y-2. I0. J0.125
N5180 G1 Y0.
N5185 G2 X1.65 Y0.025 I0.025 J0.
N5190 G1 X1.675
N5195 G18 G2 X1.7 Z0.025 I0. K0.025
N5200 G1 X1.625 Y0.
N5205 Z-0.04 F10.
N5210 Y2. F30.
N5215 G17 G3 X1.5 Y2.125 I-0.125 J0.
N5220 G1 X-3.25
N5225 G3 X-3.375 Y2. I0. J-0.125
N5230 G1 Y-2.
N5235 G3 X-3.25 Y-2.125 I0.125 J0.
N5240 G1 X1.5
N5245 G3 X1.625 Y-2. I0. J0.125
N5250 G1 Y0.
N5255 G2 X1.65 Y0.025 I0.025 J0.
N5260 G1 X1.675
N5265 G18 G2 X1.7 Z-0.015 I0. K0.025
N5270 G1 X1.625 Y0.
N5275 Z-0.08 F10.
N5280 Y2. F30.
N5285 G17 G3 X1.5 Y2.125 I-0.125 J0.
N5290 G1 X-3.25
N5295 G3 X-3.375 Y2. I0. J-0.125
N5300 G1 Y-2.
N5305 G3 X-3.25 Y-2.125 I0.125 J0.
N5310 G1 X1.5
N5315 G3 X1.625 Y-2. I0. J0.125
N5320 G1 Y0.
N5325 G2 X1.65 Y0.025 I0.025 J0.
N5330 G1 X1.675
N5335 G18 G2 X1.7 Z-0.055 I0. K0.025
N5340 G1 X1.625 Y0.
N5345 Z-0.12 F10.
N5350 Y2. F30.
N5355 G17 G3 X1.5 Y2.125 I-0.125 J0.
N5360 G1 X-3.25
N5365 G3 X-3.375 Y2. I0. J-0.125
N5370 G1 Y-2.
N5375 G3 X-3.25 Y-2.125 I0.125 J0.
N5380 G1 X1.5
N5385 G3 X1.625 Y-2. I0. J0.125
N5390 G1 Y0.
N5395 G2 X1.65 Y0.025 I0.025 J0.
N5400 G1 X1.675
N5405 G18 G2 X1.7 Z-0.095 I0. K0.025
N5410 G1 X1.625 Y0.
N5415 Z-0.16 F10.
N5420 Y2. F30.
N5425 G17 G3 X1.5 Y2.125 I-0.125 J0.
N5430 G1 X-3.25
N5435 G3 X-3.375 Y2. I0. J-0.125
N5440 G1 Y-2.
N5445 G3 X-3.25 Y-2.125 I0.125 J0.
N5450 G1 X1.5
N5455 G3 X1.625 Y-2. I0. J0.125
N5460 G1 Y0.
N5465 G2 X1.65 Y0.025 I0.025 J0.
N5470 G1 X1.675
N5475 G18 G2 X1.7 Z-0.135 I0. K0.025
N5480 G1 X1.625 Y0.
N5485 Z-0.2 F10.
N5490 Y2. F30.
N5495 G17 G3 X1.5 Y2.125 I-0.125 J0.
N5500 G1 X-3.25
N5505 G3 X-3.375 Y2. I0. J-0.125
N5510 G1 Y-2.
N5515 G3 X-3.25 Y-2.125 I0.125 J0.
N5520 G1 X1.5
N5525 G3 X1.625 Y-2. I0. J0.125
N5530 G1 Y0.
N5535 G2 X1.65 Y0.025 I0.025 J0.
N5540 G1 X1.675
N5545 G18 G2 X1.7 Z-0.175 I0. K0.025
N5550 G1 X1.625 Y0.
N5555 Z-0.24 F10.
N5560 Y2. F30.
N5565 G17 G3 X1.5 Y2.125 I-0.125 J0.
N5570 G1 X-3.25
N5575 G3 X-3.375 Y2. I0. J-0.125
N5580 G1 Y-2.
N5585 G3 X-3.25 Y-2.125 I0.125 J0.
N5590 G1 X1.5
N5595 G3 X1.625 Y-2. I0. J0.125
N5600 G1 Y0.
N5605 G2 X1.65 Y0.025 I0.025 J0.
N5610 G1 X1.675
N5615 G18 G2 X1.7 Z-0.215 I0. K0.025
N5620 G1 X1.625 Y0.
N5625 Z-0.265 F10.
N5630 Y2. F30.
N5635 G17 G3 X1.5 Y2.125 I-0.125 J0.
N5640 G1 X-3.25
N5645 G3 X-3.375 Y2. I0. J-0.125
N5650 G1 Y-2.
N5655 G3 X-3.25 Y-2.125 I0.125 J0.
N5660 G1 X1.5
N5665 G3 X1.625 Y-2. I0. J0.125
N5670 G1 Y0.
N5675 G2 X1.65 Y0.025 I0.025 J0.
N5680 G1 X1.675
N5685 G18 G2 X1.7 Z-0.24 I0. K0.025
N5690 G1 X1.625 Y0.
N5695 Z-0.29 F10.
N5700 Y2. F30.
N5705 G17 G3 X1.5 Y2.125 I-0.125 J0.
N5710 G1 X-3.25
N5715 G3 X-3.375 Y2. I0. J-0.125
N5720 G1 Y-2.
N5725 G3 X-3.25 Y-2.125 I0.125 J0.
N5730 G1 X1.5
N5735 G3 X1.625 Y-2. I0. J0.125
N5740 G1 Y0.
N5745 G2 X1.65 Y0.025 I0.025 J0.
N5750 G1 X1.675
N5755 G18 G2 X1.7 Z-0.265 I0. K0.025
N5760 G1 Z0.24
N5765 G0 Z0.64
N5770 G17
N5775 G28 G91 Z0.
N5785 M30
%
